richieYT-wan/cedar/data/partitioned_traindata/cedar_viral_10fold.csv
Peptide,HLA,trueHLA_EL_rank,agg_label,fold,BA_rank,BA_score,Core,Gl,Gp,Icore,Il,Ip,Of,PMIDs,allele,core,dataset,icore,id,label,len,non_aa_pep,non_aa_prot,number_papers_negative,number_papers_positive,peptide_start,peptide_stop,percentage_pos,pred_EL_rank,pred_EL_score,pred_HLA,prot_sequence,responses,subj_responded,subj_tested,target_bin_2,target_qual_corrected,total_count,training,uniprot_id,aliphatic_index,boman,hydrophobicity,isoelectric_point,VHSE1,VHSE3,VHSE7,VHSE8
AAAAAAQQIQV,HLA-B07:02,26.7692,0,4,11.9024,0.1632,,,,,,,,27198675,,AAAAAQIQV,cedar,AAAAAAQQIQV,,Negative,11,,,,,,,0.0,5.2822,0.0166,HLA-A68:02,,Negative,,,,,1.0,,,116.36363636363636,-0.29090909090909095,0.8181818181818182,6.099999998230487,0.00454545454545455,-0.6754545454545455,0.10545454545454545,-0.38818181818181813
AAAAQQIQV,HLA-A02:01,1.9555,0,4,0.3045,0.4709,,,,,,,,27198675,,AAAAQQIQV,cedar,AAAAQQIQV,,Negative,9,,,,,,,0.0,0.1036,0.6567,HLA-C15:02,,Negative,,,,,1.0,,,120.0,0.04666666666666656,0.6000000000000001,6.099999998230487,-0.027777777777777752,-0.5255555555555556,0.048888888888888885,-0.36777777777777776
AAAAQQIQV,HLA-B07:02,4.9092,0,4,0.3045,0.4709,,,,,,,,27198675,,AAAAQQIQV,cedar,AAAAQQIQV,,Negative,9,,,,,,,0.0,0.1036,0.6567,HLA-C15:02,,Negative,,,,,1.0,,,120.0,0.04666666666666656,0.6000000000000001,6.099999998230487,-0.027777777777777752,-0.5255555555555556,0.048888888888888885,-0.36777777777777776
AAFEDLRVL,HLA-B35:03,0.411,1,8,,,AAFEDLRVL,0.0,0.0,AAFEDLRVL,0.0,0.0,0.0,,HLA-B3503,,viral,,22458.0,,9,0.0,0.0,0.0,1.0,335.0,343.0,,,,,MASQGTKRSYEQMETDGERQNATEIRASVGKMIGGIGRFYIQMCTELKLSDYEGRLIQNSLTIERMVLSAFDERRNKYLEEHPSAGKDPKKTGGPIYRRVNGKWMRELILYDKEEIRRIWRQANNGDDATAGLTHMMIWHSNLNDATYQRTRALVRTGMDPRMCSLMQGSTLPRRSGAAGAAVKGVGTMVMELVRMIKRGINDRNFWRGENGRKTRIAYERMCNILKGKFQTAAQKAMMDQVRESRNPGNAEFEDLTFLARSALILRGSVAHKSCLPACVYGPAVASGYDFEREGYSLVGIDPFRLLQNSQVYSLIRPNENPAHKSQLVWMACHSAAFEDLRVLSFIKGTKVLPRGKLSTRGVQIASNENMETMESSTLELRSRYWAIRTRSGGNTNQQRASAGQISIQPTFSVQRNLPFDRTTIMAAFNGNTEGRTSDMRTEIIRMMESARPEDVSFQGRGVFELSDEKAASPIVPSFDMSNEGSYFFGDNAEEYDN,,1.0,1.0,0.0,0.95,,True,P03466,141.1111111111111,1.1077777777777778,0.7444444444444444,4.184407676104456,0.1666666666666667,-0.0288888888888889,0.17222222222222225,-0.11333333333333334
AAFIWIISM,HLA-B35:01,1.3004,0,3,0.1502,0.656,,,,,,,,27198675,,AAFIWIISM,cedar,AAFIWIISM,,Negative,9,,,,,,,0.0,0.1756,0.3961,HLA-C12:03,,Negative,,,,,1.0,,,152.22222222222223,-2.5155555555555558,2.2333333333333334,6.099999998230487,0.83,0.03444444444444441,-0.4,-0.33
AAHFTVLLY,HLA-A11:01,0.4196,0,3,0.1083,0.6509,,,,,,,,31511069,,AAHFTVLLY,cedar,AAHFTVLLY,,Negative,9,,,,,,,0.0,0.0256,0.817,HLA-A30:02,,Negative,,,,,1.0,,,141.1111111111111,-1.4566666666666666,1.4444444444444442,7.542349207215011,0.5711111111111111,-0.02222222222222224,-0.16777777777777778,-0.21222222222222223
AAIAASRSV,HLA-C12:03,0.0591,0,8,0.058,0.74,,,,,,,,30556813,,AAIAASRSV,cedar,AAIAASRSV,,Negative,9,,,,,,,0.0,0.0591,0.6191,HLA-C12:03,,Negative,,,,,1.0,,,120.0,0.6133333333333332,1.088888888888889,10.550002220086753,-0.020000000000000018,-0.6855555555555556,0.11777777777777776,-0.11444444444444442
AALHTPRPGPL,HLA-B07:02,4.2778,0,9,6.9173,0.1275,,,,,,,,27198675,,AHTPRPGPL,cedar,AALHTPRPGPL,,Negative,11,,,,,,,0.0,2.9629,0.029,HLA-B39:01,,Negative,,,,,1.0,,,89.0909090909091,0.7045454545454546,-0.21818181818181814,10.551758703775704,0.11272727272727275,-0.45909090909090905,0.34181818181818185,0.8190909090909092
AALLQVTLLL,HLA-A02:01,1.1841,0,1,1.1018,0.5721,,,,,,,,27198675,,ALLQVTLLL,cedar,AALLQVTLLL,,Negative,10,,,,,,,0.0,1.1841,0.191,HLA-A02:01,,Negative,,,,,1.0,,,244.0,-2.415,2.2600000000000002,6.099999998230487,0.656,-0.14400000000000004,-0.011000000000000012,-0.41100000000000003
AAMHGRKIM,HLA-B07:02,0.6699,0,3,0.3925,0.562,,,,,,,,31511069,,AAMHGRKIM,cedar,AAMHGRKIM,,Negative,9,,,,,,,0.0,0.2209,0.3495,HLA-C12:03,,Negative,,,,,1.0,,,65.55555555555554,1.2166666666666666,-0.011111111111111219,11.651789722032845,0.03555555555555559,-0.20666666666666667,0.5233333333333332,-0.24222222222222223
AAPAHSHAV,HLA-A02:06,0.8023,0,9,0.0098,0.7027,,,,,,,,34193879,,AAPAHSHAV,cedar,AAPAHSHAV,,Negative,9,,,,,,,0.0,0.0101,0.9346,HLA-C01:02,,Negative,,,,,1.0,,,76.66666666666666,0.16000000000000003,0.28888888888888886,7.714356231503189,0.005555555555555536,-0.7111111111111111,0.24777777777777774,0.3355555555555556
AAQARLQPV,HLA-B08:01,1.0295,0,5,0.454,0.4298,,,,,,,,33479501,,AAQARLQPV,cedar,AAQARLQPV,,Negative,9,,,,,,,0.0,0.7341,0.2132,HLA-C15:02,,Negative,,,,,1.0,,,108.88888888888889,1.29,0.03333333333333341,10.550002220086753,-0.06666666666666665,-0.30666666666666664,0.1811111111111111,0.16444444444444445
AAQFSSDVL,HLA-B07:02,2.966,0,1,0.3921,0.5569,,,,,,,,27198675,,AAQFSSDVL,cedar,AAQFSSDVL,,Negative,9,,,,,,,0.0,0.4982,0.2268,HLA-C03:03,,Negative,,,,,1.0,,,97.77777777777776,0.6111111111111112,0.6444444444444444,3.7499873605556786,0.05444444444444447,-0.4355555555555556,-0.24666666666666665,-0.16
AAQSVIKAL,HLA-B07:02,0.7826,0,8,0.3044,0.5934,,,,,,,,27198675,,AAQSVIKAL,cedar,AAQSVIKAL,,Negative,9,,,,,,,0.0,0.0634,0.7871,HLA-C03:03,,Negative,,,,,1.0,,,152.22222222222223,-0.5355555555555557,1.0777777777777777,9.700002531521022,0.1155555555555556,-0.41666666666666674,0.1722222222222222,-0.26555555555555554
AASPIVPSF,HLA-B15:01,0.139,0,1,,,AASPIVPSF,0.0,0.0,AASPIVPSF,0.0,0.0,0.0,,HLA-B1501,,viral,,22555.0,,9,0.0,0.0,1.0,0.0,470.0,478.0,,,,,MASQGTKRSYEQMETDGERQNATEIRASVGKMIGGIGRFYIQMCTELKLSDYEGRLIQNSLTIERMVLSAFDERRNKYLEEHPSAGKDPKKTGGPIYRRVNGKWMRELILYDKEEIRRIWRQANNGDDATAGLTHMMIWHSNLNDATYQRTRALVRTGMDPRMCSLMQGSTLPRRSGAAGAAVKGVGTMVMELVRMIKRGINDRNFWRGENGRKTRIAYERMCNILKGKFQTAAQKAMMDQVRESRNPGNAEFEDLTFLARSALILRGSVAHKSCLPACVYGPAVASGYDFEREGYSLVGIDPFRLLQNSQVYSLIRPNENPAHKSQLVWMACHSAAFEDLRVLSFIKGTKVLPRGKLSTRGVQIASNENMETMESSTLELRSRYWAIRTRSGGNTNQQRASAGQISIQPTFSVQRNLPFDRTTIMAAFNGNTEGRTSDMRTEIIRMMESARPEDVSFQGRGVFELSDEKAASPIVPSFDMSNEGSYFFGDNAEEYDN,,0.0,5.0,0.0,0.0,,True,P03466,97.77777777777776,-0.9733333333333335,1.1444444444444442,6.099999998230487,0.3277777777777778,-0.5277777777777779,-0.29666666666666663,0.6688888888888889
AASRSVVM,HLA-C12:03,0.7913,0,2,1.6394,0.3258,,,,,,,,30556813,,AAS-RSVVM,cedar,AASRSVVM,,Negative,8,,,,,,,0.0,0.7222,0.1465,HLA-C03:03,,Negative,,,,,1.0,,,97.5,0.9587499999999998,0.9750000000000001,10.550002220086753,0.0024999999999999745,-0.43875000000000003,-0.07500000000000001,-0.08125000000000002
AATPVGSLY,HLA-B40:02,11.1987,1,7,0.0706,0.619,,,,,,,,34290406,,AATPVGSLY,cedar,AATPVGSLY,,Positive,9,,,,,,,1.0,0.0143,0.826,HLA-C12:02,,Positive_all,,,,,1.0,,,97.77777777777776,-0.8233333333333335,0.7555555555555558,6.093198032584041,0.22666666666666668,-0.6766666666666666,-0.0011111111111111367,0.06555555555555556
AAYQRLTSEK,HLA-A11:01,0.2914,0,9,0.5502,0.5739,,,,,,,,24323902,,AAYQRLTSK,cedar,AAYQRLTSEK,,Negative,10,,,,,,,0.0,0.1906,0.4778,HLA-A30:01,,Negative,,,,,1.0,,,59.00000000000001,3.0389999999999997,-1.08,9.297359791584313,-0.352,-0.05700000000000003,0.205,-0.10299999999999998
AEAELAKNV,HLA-B44:03,0.063,1,6,,,AEAELAKNV,0.0,0.0,AEAELAKNV,0.0,0.0,0.0,,HLA-B4403,,viral,,25444.0,,9,0.0,0.0,0.0,1.0,2615.0,2623.0,,,,,MESLVPGFNEKTHVQLSLPVLQVRDVLVRGFGDSVEEVLSEARQHLKDGTCGLVEVEKGVLPQLEQPYVFIKRSDARTAPHGHVMVELVAELEGIQYGRSGETLGVLVPHVGEIPVAYRKVLLRKNGNKGAGGHSYGADLKSFDLGDELGTDPYEDFQENWNTKHSSGVTRELMRELNGGAYTRYVDNNFCGPDGYPLECIKDLLARAGKASCTLSEQLDFIDTKRGVYCCREHEHEIAWYTERSEKSYELQTPFEIKLAKKFDTFNGECPNFVFPLNSIIKTIQPRVEKKKLDGFMGRIRSVYPVASPNECNQMCLSTLMKCDHCGETSWQTGDFVKATCEFCGTENLTKEGATTCGYLPQNAVVKIYCPACHNSEVGPEHSLAEYHNESGLKTILRKGGRTIAFGGCVFSYVGCHNKCAYWVPRASANIGCNHTGVVGEGSEGLNDNLLEILQKEKVNINIVGDFKLNEEIAIILASFSASTSAFVETVKGLDYKAFKQIVESCGNFKVTKGKAKKGAWNIGEQKSILSPLYAFASEAARVVRSIFSRTLETAQNSVRVLQKAAITILDGISQYSLRLIDAMMFTSDLATNNLVVMAYITGGVVQLTSQWLTNIFGTVYEKLKPVLDWLEEKFKEGVEFLRDGWEIVKFISTCACEIVGGQIVTCAKEIKESVQTFFKLVNKFLALCADSIIIGGAKLKALNLGETFVTHSKGLYRKCVKSREETGLLMPLKAPKEIIFLEGETLPTEVLTEEVVLKTGDLQPLEQPTSEAVEAPLVGTPVCINGLMLLEIKDTEKYCALAPNMMVTNNTFTLKGGAPTKVTFGDDTVIEVQGYKSVNITFELDERIDKVLNEKCSAYTVELGTEVNEFACVVADAVIKTLQPVSELLTPLGIDLDEWSMATYYLFDESGEFKLASHMYCSFYPPDEDEEEGDCEEEEFEPSTQYEYGTEDDYQGKPLEFGATSAALQPEEEQEEDWLDDDSQQTVGQQDGSEDNQTTTIQTIVEVQPQLEMELTPVVQTIEVNSFSGYLKLTDNVYIKNADIVEEAKKVKPTVVVNAANVYLKHGGGVAGALNKATNNAMQVESDDYIATNGPLKVGGSCVLSGHNLAKHCLHVVGPNVNKGEDIQLLKSAYENFNQHEVLLAPLLSAGIFGADPIHSLRVCVDTVRTNVYLAVFDKNLYDKLVSSFLEMKSEKQVEQKIAEIPKEEVKPFITESKPSVEQRKQDDKKIKACVEEVTTTLEETKFLTENLLLYIDINGNLHPDSATLVSDIDITFLKKDAPYIVGDVVQEGVLTAVVIPTKKAGGTTEMLAKALRKVPTDNYITTYPGQGLNGYTVEEAKTVLKKCKSAFYILPSIISNEKQEILGTVSWNLREMLAHAEETRKLMPVCVETKAIVSTIQRKYKGIKIQEGVVDYGARFYFYTSKTTVASLINTLNDLNETLVTMPLGYVTHGLNLEEAARYMRSLKVPATVSVSSPDAVTAYNGYLTSSSKTPEEHFIETISLAGSYKDWSYSGQSTQLGIEFLKRGDKSVYYTSNPTTFHLDGEVITFDNLKTLLSLREVRTIKVFTTVDNINLHTQVVDMSMTYGQQFGPTYLDGADVTKIKPHNSHEGKTFYVLPNDDTLRVEAFEYYHTTDPSFLGRYMSALNHTKKWKYPQVNGLTSIKWADNNCYLATALLTLQQIELKFNPPALQDAYYRARAGEAANFCALILAYCNKTVGELGDVRETMSYLFQHANLDSCKRVLNVVCKTCGQQQTTLKGVEAVMYMGTLSYEQFKKGVQIPCTCGKQATKYLVQQESPFVMMSAPPAQYELKHGTFTCASEYTGNYQCGHYKHITSKETLYCIDGALLTKSSEYKGPITDVFYKENSYTTTIKPVTYKLDGVVCTEIDPKLDNYYKKDNSYFTEQPIDLVPNQPYPNASFDNFKFVCDNIKFADDLNQLTGYKKPASRELKVTFFPDLNGDVVAIDYKHYTPSFKKGAKLLHKPIVWHVNNATNKATYKPNTWCIRCLWSTKPVETSNSFDVLKSEDAQGMDNLACEDLKPVSEEVVENPTIQKDVLECNVKTTEVVGDIILKPANNSLKITEEVGHTDLMAAYVDNSSLTIKKPNELSRVLGLKTLATHGLAAVNSVPWDTIANYAKPFLNKVVSTTTNIVTRCLNRVCTNYMPYFFTLLLQLCTFTRSTNSRIKASMPTTIAKNTVKSVGKFCLEASFNYLKSPNFSKLINIIIWFLLLSVCLGSLIYSTAALGVLMSNLGMPSYCTGYREGYLNSTNVTIATYCTGSIPCSVCLSGLDSLDTYPSLETIQITISSFKWDLTAFGLVAEWFLAYILFTRFFYVLGLAAIMQLFFSYFAVHFISNSWLMWLIINLVQMAPISAMVRMYIFFASFYYVWKSYVHVVDGCNSSTCMMCYKRNRATRVECTTIVNGVRRSFYVYANGGKGFCKLHNWNCVNCDTFCAGSTFISDEVARDLSLQFKRPINPTDQSSYIVDSVTVKNGSIHLYFDKAGQKTYERHSLSHFVNLDNLRANNTKGSLPINVIVFDGKSKCEESSAKSASVYYSQLMCQPILLLDQALVSDVGDSAEVAVKMFDAYVNTFSSTFNVPMEKLKTLVATAEAELAKNVSLDNVLSTFISAARQGFVDSDVETKDVVECLKLSHQSDIEVTGDSCNNYMLTYNKVENMTPRDLGACIDCSARHINAQVAKSHNIALIWNVKDFMSLSEQLRKQIRSAAKKNNLPFKLTCATTRQVVNVVTTKIALKGGKIVNNWLKQLIKVTLVFLFVAAIFYLITPVHVMSKHTDFSSEIIGYKAIDGGVTRDIASTDTCFANKHADFDTWFSQRGGSYTNDKACPLIAAVITREVGFVVPGLPGTILRTTNGDFLHFLPRVFSAVGNICYTPSKLIEYTDFATSACVLAAECTIFKDASGKPVPYCYDTNVLEGSVAYESLRPDTRYVLMDGSIIQFPNTYLEGSVRVVTTFDSEYCRHGTCERSEAGVCVSTSGRWVLNNDYYRSLPGVFCGVDAVNLLTNMFTPLIQPIGALDISASIVAGGIVAIVVTCLAYYFMRFRRAFGEYSHVVAFNTLLFLMSFTVLCLTPVYSFLPGVYSVIYLYLTFYLTNDVSFLAHIQWMVMFTPLVPFWITIAYIICISTKHFYWFFSNYLKRRVVFNGVSFSTFEEAALCTFLLNKEMYLKLRSDVLLPLTQYNRYLALYNKYKYFSGAMDTTSYREAACCHLAKALNDFSNSGSDVLYQPPQTSITSAVLQSGFRKMAFPSGKVEGCMVQVTCGTTTLNGLWLDDVVYCPRHVICTSEDMLNPNYEDLLIRKSNHNFLVQAGNVQLRVIGHSMQNCVLKLKVDTANPKTPKYKFVRIQPGQTFSVLACYNGSPSGVYQCAMRPNFTIKGSFLNGSCGSVGFNIDYDCVSFCYMHHMELPTGVHAGTDLEGNFYGPFVDRQTAQAAGTDTTITVNVLAWLYAAVINGDRWFLNRFTTTLNDFNLVAMKYNYEPLTQDHVDILGPLSAQTGIAVLDMCASLKELLQNGMNGRTILGSALLEDEFTPFDVVRQCSGVTFQSAVKRTIKGTHHWLLLTILTSLLVLVQSTQWSLFFFLYENAFLPFAMGIIAMSAFAMMFVKHKHAFLCLFLLPSLATVAYFNMVYMPASWVMRIMTWLDMVDTSLSGFKLKDCVMYASAVVLLILMTARTVYDDGARRVWTLMNVLTLVYKVYYGNALDQAISMWALIISVTSNYSGVVTTVMFLARGIVFMCVEYCPIFFITGNTLQCIMLVYCFLGYFCTCYFGLFCLLNRYFRLTLGVYDYLVSTQEFRYMNSQGLLPPKNSIDAFKLNIKLLGVGGKPCIKVATVQSKMSDVKCTSVVLLSVLQQLRVESSSKLWAQCVQLHNDILLAKDTTEAFEKMVSLLSVLLSMQGAVDINKLCEEMLDNRATLQAIASEFSSLPSYAAFATAQEAYEQAVANGDSEVVLKKLKKSLNVAKSEFDRDAAMQRKLEKMADQAMTQMYKQARSEDKRAKVTSAMQTMLFTMLRKLDNDALNNIINNARDGCVPLNIIPLTTAAKLMVVIPDYNTYKNTCDGTTFTYASALWEIQQVVDADSKIVQLSEISMDNSPNLAWPLIVTALRANSAVKLQNNELSPVALRQMSCAAGTTQTACTDDNALAYYNTTKGGRFVLALLSDLQDLKWARFPKSDGTGTIYTELEPPCRFVTDTPKGPKVKYLYFIKGLNNLNRGMVLGSLAATVRLQAGNATEVPANSTVLSFCAFAVDAAKAYKDYLASGGQPITNCVKMLCTHTGTGQAITVTPEANMDQESFGGASCCLYCRCHIDHPNPKGFCDLKGKYVQIPTTCANDPVGFTLKNTVCTVCGMWKGYGCSCDQLREPMLQSADAQSFLNRVCGVSAARLTPCGTGTSTDVVYRAFDIYNDKVAGFAKFLKTNCCRFQEKDEDDNLIDSYFVVKRHTFSNYQHEETIYNLLKDCPAVAKHDFFKFRIDGDMVPHISRQRLTKYTMADLVYALRHFDEGNCDTLKEILVTYNCCDDDYFNKKDWYDFVENPDILRVYANLGERVRQALLKTVQFCDAMRNAGIVGVLTLDNQDLNGNWYDFGDFIQTTPGSGVPVVDSYYSLLMPILTLTRALTAESHVDTDLTKPYIKWDLLKYDFTEERLKLFDRYFKYWDQTYHPNCVNCLDDRCILHCANFNVLFSTVFPPTSFGPLVRKIFVDGVPFVVSTGYHFRELGVVHNQDVNLHSSRLSFKELLVYAADPAMHAASGNLLLDKRTTCFSVAALTNNVAFQTVKPGNFNKDFYDFAVSKGFFKEGSSVELKHFFFAQDGNAAISDYDYYRYNLPTMCDIRQLLFVVEVVDKYFDCYDGGCINANQVIVNNLDKSAGFPFNKWGKARLYYDSMSYEDQDALFAYTKRNVIPTITQMNLKYAISAKNRARTVAGVSICSTMTNRQFHQKLLKSIAATRGATVVIGTSKFYGGWHNMLKTVYSDVENPHLMGWDYPKCDRAMPNMLRIMASLVLARKHTTCCSLSHRFYRLANECAQVLSEMVMCGGSLYVKPGGTSSGDATTAYANSVFNICQAVTANVNALLSTDGNKIADKYVRNLQHRLYECLYRNRDVDTDFVNEFYAYLRKHFSMMILSDDAVVCFNSTYASQGLVASIKNFKSVLYYQNNVFMSEAKCWTETDLTKGPHEFCSQHTMLVKQGDDYVYLPYPDPSRILGAGCFVDDIVKTDGTLMIERFVSLAIDAYPLTKHPNQEYADVFHLYLQYIRKLHDELTGHMLDMYSVMLTNDNTSRYWEPEFYEAMYTPHTVLQAVGACVLCNSQTSLRCGACIRRPFLCCKCCYDHVISTSHKLVLSVNPYVCNAPGCDVTDVTQLYLGGMSYYCKSHKPPISFPLCANGQVFGLYKNTCVGSDNVTDFNAIATCDWTNAGDYILANTCTERLKLFAAETLKATEETFKLSYGIATVREVLSDRELHLSWEVGKPRPPLNRNYVFTGYRVTKNSKVQIGEYTFEKGDYGDAVVYRGTTTYKLNVGDYFVLTSHTVMPLSAPTLVPQEHYVRITGLYPTLNISDEFSSNVANYQKVGMQKYSTLQGPPGTGKSHFAIGLALYYPSARIVYTACSHAAVDALCEKALKYLPIDKCSRIIPARARVECFDKFKVNSTLEQYVFCTVNALPETTADIVVFDEISMATNYDLSVVNARLRAKHYVYIGDPAQLPAPRTLLTKGTLEPEYFNSVCRLMKTIGPDMFLGTCRRCPAEIVDTVSALVYDNKLKAHKDKSAQCFKMFYKGVITHDVSSAINRPQIGVVREFLTRNPAWRKAVFISPYNSQNAVASKILGLPTQTVDSSQGSEYDYVIFTQTTETAHSCNVNRFNVAITRAKVGILCIMSDRDLYDKLQFTSLEIPRRNVATLQAENVTGLFKDCSKVITGLHPTQAPTHLSVDTKFKTEGLCVDIPGIPKDMTYRRLISMMGFKMNYQVNGYPNMFITREEAIRHVRAWIGFDVEGCHATREAVGTNLPLQLGFSTGVNLVAVPTGYVDTPNNTDFSRVSAKPPPGDQFKHLIPLMYKGLPWNVVRIKIVQMLSDTLKNLSDRVVFVLWAHGFELTSMKYFVKIGPERTCCLCDRRATCFSTASDTYACWHHSIGFDYVYNPFMIDVQQWGFTGNLQSNHDLYCQVHGNAHVASCDAIMTRCLAVHECFVKRVDWTIEYPIIGDELKINAACRKVQHMVVKAALLADKFPVLHDIGNPKAIKCVPQADVEWKFYDAQPCSDKAYKIEELFYSYATHSDKFTDGVCLFWNCNVDRYPANSIVCRFDTRVLSNLNLPGCDGGSLYVNKHAFHTPAFDKSAFVNLKQLPFFYYSDSPCESHGKQVVSDIDYVPLKSATCITRCNLGGAVCRHHANEYRLYLDAYNMMISAGFSLWVYKQFDTYNLWNTFTRLQSLENVAFNVVNKGHFDGQQGEVPVSIINNTVYTKVDGVDVELFENKTTLPVNVAFELWAKRNIKPVPEVKILNNLGVDIAANTVIWDYKRDAPAHISTIGVCSMTDIAKKPTETICAPLTVFFDGRVDGQVDLFRNARNGVLITEGSVKGLQPSVGPKQASLNGVTLIGEAVKTQFNYYKKVDGVVQQLPETYFTQSRNLQEFKPRSQMEIDFLELAMDEFIERYKLEGYAFEHIVYGDFSHSQLGGLHLLIGLAKRFKESPFELEDFIPMDSTVKNYFITDAQTGSSKCVCSVIDLLLDDFVEIIKSQDLSVVSKVVKVTIDYTEISFMLWCKDGHVETFYPKLQSSQAWQPGVAMPNLYKMQRMLLEKCDLQNYGDSATLPKGIMMNVAKYTQLCQYLNTLTLAVPYNMRVIHFGAGSDKGVAPGTAVLRQWLPTGTLLVDSDLNDFVSDADSTLIGDCATVHTANKWDLIISDMYDPKTKNVTKENDSKEGFFTYICGFIQQKLALGGSVAIKITEHSWNADLYKLMGHFAWWTAFVTNVNASSSEAFLIGCNYLGKPREQIDGYVMHANYIFWRNTNPIQLSSYSLFDMSKFPLKLRGTAVMSLKEGQINDMILSLLSKGRLIIRENNRVVISSDVLVNN,,1.0,2.0,0.0,0.95,,False,P0DTD1,108.88888888888889,1.2688888888888887,-0.11111111111111122,4.258147296961397,-0.21666666666666667,-0.37,0.5666666666666667,-0.30222222222222217
AEAERLDVKAI,HLA-B44:03,0.5602,0,0,0.574,0.3796,,,,,,,,30556813,,AEAEDVKAI,cedar,AEAERLDVKAI,,Negative,11,,,,,,,0.0,0.3815,0.3864,HLA-B44:02,,Negative,,,,,1.0,,,124.54545454545456,2.1363636363636362,-0.09090909090909091,4.426407462451607,-0.20999999999999996,-0.16636363636363635,0.5036363636363637,-0.05999999999999999
AEDLNLGNL,HLA-B40:01,0.14,1,6,,,AEDLNLGNL,0.0,0.0,AEDLNLGNL,0.0,0.0,0.0,,HLA-B4001,,viral,,24477.0,,9,0.0,0.0,0.0,1.0,37.0,45.0,,,,,MPLSYQHFRKLLLLDDEAGPLEEELPRLADEGLNRRVAEDLNLGNLNVSIPWTHKVGNFTGLYSSTVPVFNPDWKTPSFPHIHLQEDIINRCQQYVGPLTVNEKRRLKLIMPARFYPNLTKYLPLDKGIKPYYPEYAVNHYFKTRHYLHTLWKAGILYKRETTRSASFCGSPYSWEQELQHGRLVFQTSTRHGDESFCSQSSGILSRSPVGPCVRSQLKQSRLGLQPQQGSLARGKSGRSGSIWSRVHPTTRRPFGVEPSGSGHIDNTASSTSSCLHQSAVRKTAYSHLSTSKRQSSSGHAVELHNIPPSSARSQSEGPIFSCWWLQFRNSKPCSDYCLTHIVNLLEDWGPCTEHGEHNIRIPRTPARVTGGVFLVDKNPHNTTESRLVVDFSQFSRGSTHVSWPKFAVPNLQSLTNLLSSNLSWLSLDVSAAFYHIPLHPAAMPHLLVGSSGLPRYVARLSSTSRNINYQHGTMQNLHDSCSRNLYVSLLLLYKTFGRKLHLYSHPIILGFRKIPMGVGLSPFLLAQFTSAICSVVRRAFPHCLAFSYMDDVVLGAKSVQHLESLFTSITNFLLSLGIHLNPNKTKRWGYSLNFMGYVIGSWGTLPQEHIVQKLKQCFRKLPVNRPIDWKVCQRIVGLLGFAAPFTQCGYPALMPLYACIQSKQAFTFSPTYKAFLCKQYLNLYPVARQRSGLCQVFADATPTGWGLAIGHRRMRGTFVAPLPIHTAELLAACFARSRSGAKLIGTDNSVVLSRKYTSFPWLLGCAANWILRGTSFVYVPSALNPADDPSRGRLGLYRPLLHLPFRPTTGRTSLYAVSPSVPSHLPDRVHFASPLHVAWRPP,,1.0,3.0,0.0,0.95,,True,Q69028,141.1111111111111,1.2555555555555555,-0.13333333333333336,3.5500735570676625,-0.031111111111111065,-0.4388888888888889,0.5566666666666666,-0.5222222222222223
AEETPPFSNY,HLA-B44:03,0.0334,0,6,0.1229,0.5609,,,,,,,,30556813,,AETPPFSNY,cedar,AEETPPFSNY,,Negative,10,,,,,,,0.0,0.0334,0.9549,HLA-B44:03,,Negative,,,,,1.0,,,10.0,2.158,-1.1900000000000002,3.6136910975910723,-0.164,-0.20100000000000007,-0.119,0.5660000000000001
AEHSLQVAY,HLA-B44:08,0.0073,1,7,0.0095,0.7441,,,,,,,,27312342,,AEHSLQVAY,cedar,AEHSLQVAY,,Positive,9,,,,,,,1.0,0.0028,0.9944,HLA-B44:03,,Positive_all,,,,,1.0,,,97.77777777777776,0.8855555555555557,-0.07777777777777782,5.363445803988725,-0.023333333333333317,-0.1955555555555556,0.06666666666666668,-0.19555555555555557
AEHSLQVAY,HLA-B44:03,0.0028,1,7,0.0095,0.7441,,,,,,,,27312342,,AEHSLQVAY,cedar,AEHSLQVAY,,Positive,9,,,,,,,1.0,0.0028,0.9944,HLA-B44:03,,Positive_all,,,,,1.0,,,97.77777777777776,0.8855555555555557,-0.07777777777777782,5.363445803988725,-0.023333333333333317,-0.1955555555555556,0.06666666666666668,-0.19555555555555557
AEIEDLIF,HLA-B40:02,0.653,1,7,,,AEIEDLI-F,0.0,0.0,AEIEDLIF,1.0,7.0,0.0,,HLA-B4002,,viral,,27830.0,,8,0.0,0.0,0.0,1.0,250.0,257.0,,,,,MASQGTKRSYEQMETDGERQNATEIRASVGKMIDGIGRFYIQMCTELKLSDYEGRLIQNSLTIERMVLSAFDERRNRYLEEHPSAGKDPKKTGGPIYRRVGGKWIRELILYDKEEIRRIWRQANNGDDATRGLTHMMIWHSNLNDATYQRTRALVRTGMDPRMCSLMQGSTLPRRSGAAGAAVKGVGTMVMELIRMIKRGINDRNFWRGENGRKTRSAYERMCNILKGKFQTAAQRAMMDQVRESRNPGNAEIEDLIFSARSALILRGSVAHKSCLPACVYGPAVSSGYDFEKEGYSLVGIDPFKLLQNSQVYSLIRPNENPAHKSQLVWMACHSAAFEDLRLLSFIRGTKVSPRGKLSTRGVQIASNENMDTMESSTLELRSRYWAIRTRSGGNTNQQRASAGQISVQPTFSVQRNLPFDKSTVMAAFTGNTEGRTSDMRAEIIRMMENAKPEEVSFRGRGVFELSDEKATNPIVPSFDMSNEGSYFFGDNAEEYDN,,0.0,0.0,0.0,0.95,,True,P26090,158.75,0.34875,0.8624999999999999,3.42471199342981,0.2575,0.045,0.08000000000000002,-0.12
AEKIPRVSI,HLA-B37:01,0.192,0,8,,,AEKIPRVSI,0.0,0.0,AEKIPRVSI,0.0,0.0,0.0,,HLA-B3701,,viral,,13007.0,,9,0.0,0.0,1.0,0.0,135.0,143.0,,,,,MDVARFLNNNAILHDDCLKSPIVCLERLATEFNAWLTSILLSLEIVFFNEAFIISVISLVILQSDWVVMLSNISPMDTVHVPAFVIILSKMLYGIAQKISSPVISPLSINLLRLFLNALFSGEKISVSIISLIVYAEKIPRVSILSKILIGSESQIMVSSPSGDPA,,0.0,1.0,0.0,0.0,,True,P20514,129.99999999999997,1.6655555555555557,0.07777777777777789,9.695027685724199,-0.09111111111111109,-0.05,0.31222222222222223,0.4311111111111111
AEPINIQTW,HLA-B44:02,0.0133,0,6,0.0677,0.6176,,,,,,,,32314731,,AEPINIQTW,cedar,AEPINIQTW,,Negative,9,,,,,,,0.0,0.0133,0.9654,HLA-B44:02,,Negative,,,,,1.0,,,97.77777777777776,0.842222222222222,-0.3222222222222222,3.849983240943402,0.10444444444444444,-0.01111111111111112,-0.05666666666666667,0.13000000000000003
AERLDVKAI,HLA-B44:03,0.37,0,0,0.0914,0.6669,,,,,,,,30556813,,AERLDVKAI,cedar,AERLDVKAI,,Negative,9,,,,,,,0.0,0.0706,0.8772,HLA-B41:02,,Negative,,,,,1.0,,,141.1111111111111,2.0555555555555554,0.07777777777777779,6.494323082733899,-0.1422222222222222,-0.06444444444444443,0.4744444444444444,-0.022222222222222216
AEVDQDGVVM,HLA-B44:03,0.3688,0,5,0.1557,0.635,,,,,,,,"34244308,34244308",,AEVDQGVVM,cedar,AEVDQDGVVM,,Negative,10,,,,,,,0.0,0.0935,0.9005,HLA-B40:01,,"Negative,Negative",,,,,2.0,,,97.0,1.2570000000000001,0.19000000000000009,3.3800301984883845,-0.12,-0.45999999999999996,0.156,-0.186
AEVERLMEL,HLA-B37:01,0.005,0,0,,,AEVERLMEL,0.0,0.0,AEVERLMEL,0.0,0.0,0.0,,HLA-B3701,,viral,,13186.0,,9,0.0,0.0,1.0,0.0,198.0,206.0,,,,,MAAEQRRSTIFDIVSKCIVQSVLRDISINSEYIESKAKQLCYCPASKKESVINGIYNCCESNIEIMDKEQLLKILDNLRCHSAHVCNATDFWRLYNSLKRFTHTTAFFNTCKPTILATLNTLITLILSNKLLYAAEMVEYLENQLDSSNKSMSQELAELLEMKYALINLVQYRILPMIIGEPIIVAGFSGKEPISDYSAEVERLMELPVKTDIVNTTYDFLARKGIDTSNNIAEYIAGLKIEEIEKVEKYLPEVISTIANSNIIKNKKSIFPANINDKQIMECSRMLDTSEKYSKGYKTDGAVTSPLTGNNTITTFIPISASDMQKFTILEYLYIMRVMANNVKKKNVGKNNGGVVMHINSPFKVINLPKC,,0.0,1.0,0.0,0.0,,True,P21028,129.99999999999997,1.923333333333333,0.05555555555555555,3.9800546946935356,-0.04111111111111107,0.13,0.38333333333333336,-0.1711111111111111
AEVPENVFL,HLA-B40:01,0.0101,0,5,0.0267,0.7652,,,,,,,,33208106,,AEVPENVFL,cedar,AEVPENVFL,,Negative,9,,,,,,,0.0,0.0101,0.9884,HLA-B40:01,,Negative,,,,,1.0,,,118.88888888888889,0.27444444444444444,0.5222222222222223,3.613691325765103,0.15777777777777782,-0.11555555555555556,0.11000000000000001,0.16000000000000003
AEWDRVHPV,HLA-B40:02,0.0139999999999999,1,7,,,AEWDRVHPV,0.0,0.0,AEWDRVHPV,0.0,0.0,0.0,,HLA-B4002,,viral,,19601.0,,9,0.0,0.0,0.0,1.0,211.0,219.0,,,,,MGARASVLSGGELDKWEKIRLRPGGKKKYKLKHIVWASRELERFAVNPGLLETSEGCRQILGQLQPSLQTGSEELRSLYNTVATLYCVHQRIDVKDTKEALEKIEEEQNKSKKKAQQAAAAAGTGNSSQVSQNYPIVQNLQGQMVHQAISPRTLNAWVKVVEEKAFSPEVIPMFSALSEGATPQDLNTMLNTVGGHQAAMQMLKETINEEAAEWDRVHPVHAGPIAPGQMREPRGSDIAGTTSTLQEQIGWMTNNPPIPVGEIYKRWIILGLNKIVRMYSPTSILDIRQGPKEPFRDYVDRFYKTLRAEQASQDVKNWMTETLLVQNANPDCKTILKALGPAATLEEMMTACQGVGGPGHKARVLAEAMSQVTNPANIMMQRGNFRNQRKTVKCFNCGKEGHIAKNCRAPRKKGCWRCGREGHQMKDCTERQANFLGKIWPSYKGRPGNFLQSRPEPTAPPEESFRFGEEKTTPSQKQEPIDKELYPLTSLRSLFGNDPSSQ,,0.0,0.0,0.0,0.95,,True,P03349,75.55555555555556,2.5433333333333334,-0.7777777777777779,5.454309455584735,-0.09333333333333332,0.10000000000000003,0.20555555555555555,0.47
AEWFLAYILF,HLA-B44:03,0.413,0,7,,,AEWFLAYLF,1.0,7.0,AEWFLAYILF,0.0,0.0,0.0,,HLA-B4403,,viral,,25435.0,,10,0.0,0.0,1.0,0.0,2324.0,2333.0,,,,,MESLVPGFNEKTHVQLSLPVLQVRDVLVRGFGDSVEEVLSEARQHLKDGTCGLVEVEKGVLPQLEQPYVFIKRSDARTAPHGHVMVELVAELEGIQYGRSGETLGVLVPHVGEIPVAYRKVLLRKNGNKGAGGHSYGADLKSFDLGDELGTDPYEDFQENWNTKHSSGVTRELMRELNGGAYTRYVDNNFCGPDGYPLECIKDLLARAGKASCTLSEQLDFIDTKRGVYCCREHEHEIAWYTERSEKSYELQTPFEIKLAKKFDTFNGECPNFVFPLNSIIKTIQPRVEKKKLDGFMGRIRSVYPVASPNECNQMCLSTLMKCDHCGETSWQTGDFVKATCEFCGTENLTKEGATTCGYLPQNAVVKIYCPACHNSEVGPEHSLAEYHNESGLKTILRKGGRTIAFGGCVFSYVGCHNKCAYWVPRASANIGCNHTGVVGEGSEGLNDNLLEILQKEKVNINIVGDFKLNEEIAIILASFSASTSAFVETVKGLDYKAFKQIVESCGNFKVTKGKAKKGAWNIGEQKSILSPLYAFASEAARVVRSIFSRTLETAQNSVRVLQKAAITILDGISQYSLRLIDAMMFTSDLATNNLVVMAYITGGVVQLTSQWLTNIFGTVYEKLKPVLDWLEEKFKEGVEFLRDGWEIVKFISTCACEIVGGQIVTCAKEIKESVQTFFKLVNKFLALCADSIIIGGAKLKALNLGETFVTHSKGLYRKCVKSREETGLLMPLKAPKEIIFLEGETLPTEVLTEEVVLKTGDLQPLEQPTSEAVEAPLVGTPVCINGLMLLEIKDTEKYCALAPNMMVTNNTFTLKGGAPTKVTFGDDTVIEVQGYKSVNITFELDERIDKVLNEKCSAYTVELGTEVNEFACVVADAVIKTLQPVSELLTPLGIDLDEWSMATYYLFDESGEFKLASHMYCSFYPPDEDEEEGDCEEEEFEPSTQYEYGTEDDYQGKPLEFGATSAALQPEEEQEEDWLDDDSQQTVGQQDGSEDNQTTTIQTIVEVQPQLEMELTPVVQTIEVNSFSGYLKLTDNVYIKNADIVEEAKKVKPTVVVNAANVYLKHGGGVAGALNKATNNAMQVESDDYIATNGPLKVGGSCVLSGHNLAKHCLHVVGPNVNKGEDIQLLKSAYENFNQHEVLLAPLLSAGIFGADPIHSLRVCVDTVRTNVYLAVFDKNLYDKLVSSFLEMKSEKQVEQKIAEIPKEEVKPFITESKPSVEQRKQDDKKIKACVEEVTTTLEETKFLTENLLLYIDINGNLHPDSATLVSDIDITFLKKDAPYIVGDVVQEGVLTAVVIPTKKAGGTTEMLAKALRKVPTDNYITTYPGQGLNGYTVEEAKTVLKKCKSAFYILPSIISNEKQEILGTVSWNLREMLAHAEETRKLMPVCVETKAIVSTIQRKYKGIKIQEGVVDYGARFYFYTSKTTVASLINTLNDLNETLVTMPLGYVTHGLNLEEAARYMRSLKVPATVSVSSPDAVTAYNGYLTSSSKTPEEHFIETISLAGSYKDWSYSGQSTQLGIEFLKRGDKSVYYTSNPTTFHLDGEVITFDNLKTLLSLREVRTIKVFTTVDNINLHTQVVDMSMTYGQQFGPTYLDGADVTKIKPHNSHEGKTFYVLPNDDTLRVEAFEYYHTTDPSFLGRYMSALNHTKKWKYPQVNGLTSIKWADNNCYLATALLTLQQIELKFNPPALQDAYYRARAGEAANFCALILAYCNKTVGELGDVRETMSYLFQHANLDSCKRVLNVVCKTCGQQQTTLKGVEAVMYMGTLSYEQFKKGVQIPCTCGKQATKYLVQQESPFVMMSAPPAQYELKHGTFTCASEYTGNYQCGHYKHITSKETLYCIDGALLTKSSEYKGPITDVFYKENSYTTTIKPVTYKLDGVVCTEIDPKLDNYYKKDNSYFTEQPIDLVPNQPYPNASFDNFKFVCDNIKFADDLNQLTGYKKPASRELKVTFFPDLNGDVVAIDYKHYTPSFKKGAKLLHKPIVWHVNNATNKATYKPNTWCIRCLWSTKPVETSNSFDVLKSEDAQGMDNLACEDLKPVSEEVVENPTIQKDVLECNVKTTEVVGDIILKPANNSLKITEEVGHTDLMAAYVDNSSLTIKKPNELSRVLGLKTLATHGLAAVNSVPWDTIANYAKPFLNKVVSTTTNIVTRCLNRVCTNYMPYFFTLLLQLCTFTRSTNSRIKASMPTTIAKNTVKSVGKFCLEASFNYLKSPNFSKLINIIIWFLLLSVCLGSLIYSTAALGVLMSNLGMPSYCTGYREGYLNSTNVTIATYCTGSIPCSVCLSGLDSLDTYPSLETIQITISSFKWDLTAFGLVAEWFLAYILFTRFFYVLGLAAIMQLFFSYFAVHFISNSWLMWLIINLVQMAPISAMVRMYIFFASFYYVWKSYVHVVDGCNSSTCMMCYKRNRATRVECTTIVNGVRRSFYVYANGGKGFCKLHNWNCVNCDTFCAGSTFISDEVARDLSLQFKRPINPTDQSSYIVDSVTVKNGSIHLYFDKAGQKTYERHSLSHFVNLDNLRANNTKGSLPINVIVFDGKSKCEESSAKSASVYYSQLMCQPILLLDQALVSDVGDSAEVAVKMFDAYVNTFSSTFNVPMEKLKTLVATAEAELAKNVSLDNVLSTFISAARQGFVDSDVETKDVVECLKLSHQSDIEVTGDSCNNYMLTYNKVENMTPRDLGACIDCSARHINAQVAKSHNIALIWNVKDFMSLSEQLRKQIRSAAKKNNLPFKLTCATTRQVVNVVTTKIALKGGKIVNNWLKQLIKVTLVFLFVAAIFYLITPVHVMSKHTDFSSEIIGYKAIDGGVTRDIASTDTCFANKHADFDTWFSQRGGSYTNDKACPLIAAVITREVGFVVPGLPGTILRTTNGDFLHFLPRVFSAVGNICYTPSKLIEYTDFATSACVLAAECTIFKDASGKPVPYCYDTNVLEGSVAYESLRPDTRYVLMDGSIIQFPNTYLEGSVRVVTTFDSEYCRHGTCERSEAGVCVSTSGRWVLNNDYYRSLPGVFCGVDAVNLLTNMFTPLIQPIGALDISASIVAGGIVAIVVTCLAYYFMRFRRAFGEYSHVVAFNTLLFLMSFTVLCLTPVYSFLPGVYSVIYLYLTFYLTNDVSFLAHIQWMVMFTPLVPFWITIAYIICISTKHFYWFFSNYLKRRVVFNGVSFSTFEEAALCTFLLNKEMYLKLRSDVLLPLTQYNRYLALYNKYKYFSGAMDTTSYREAACCHLAKALNDFSNSGSDVLYQPPQTSITSAVLQSGFRKMAFPSGKVEGCMVQVTCGTTTLNGLWLDDVVYCPRHVICTSEDMLNPNYEDLLIRKSNHNFLVQAGNVQLRVIGHSMQNCVLKLKVDTANPKTPKYKFVRIQPGQTFSVLACYNGSPSGVYQCAMRPNFTIKGSFLNGSCGSVGFNIDYDCVSFCYMHHMELPTGVHAGTDLEGNFYGPFVDRQTAQAAGTDTTITVNVLAWLYAAVINGDRWFLNRFTTTLNDFNLVAMKYNYEPLTQDHVDILGPLSAQTGIAVLDMCASLKELLQNGMNGRTILGSALLEDEFTPFDVVRQCSGVTFQSAVKRTIKGTHHWLLLTILTSLLVLVQSTQWSLFFFLYENAFLPFAMGIIAMSAFAMMFVKHKHAFLCLFLLPSLATVAYFNMVYMPASWVMRIMTWLDMVDTSLSGFKLKDCVMYASAVVLLILMTARTVYDDGARRVWTLMNVLTLVYKVYYGNALDQAISMWALIISVTSNYSGVVTTVMFLARGIVFMCVEYCPIFFITGNTLQCIMLVYCFLGYFCTCYFGLFCLLNRYFRLTLGVYDYLVSTQEFRYMNSQGLLPPKNSIDAFKLNIKLLGVGGKPCIKVATVQSKMSDVKCTSVVLLSVLQQLRVESSSKLWAQCVQLHNDILLAKDTTEAFEKMVSLLSVLLSMQGAVDINKLCEEMLDNRATLQAIASEFSSLPSYAAFATAQEAYEQAVANGDSEVVLKKLKKSLNVAKSEFDRDAAMQRKLEKMADQAMTQMYKQARSEDKRAKVTSAMQTMLFTMLRKLDNDALNNIINNARDGCVPLNIIPLTTAAKLMVVIPDYNTYKNTCDGTTFTYASALWEIQQVVDADSKIVQLSEISMDNSPNLAWPLIVTALRANSAVKLQNNELSPVALRQMSCAAGTTQTACTDDNALAYYNTTKGGRFVLALLSDLQDLKWARFPKSDGTGTIYTELEPPCRFVTDTPKGPKVKYLYFIKGLNNLNRGMVLGSLAATVRLQAGNATEVPANSTVLSFCAFAVDAAKAYKDYLASGGQPITNCVKMLCTHTGTGQAITVTPEANMDQESFGGASCCLYCRCHIDHPNPKGFCDLKGKYVQIPTTCANDPVGFTLKNTVCTVCGMWKGYGCSCDQLREPMLQSADAQSFLNRVCGVSAARLTPCGTGTSTDVVYRAFDIYNDKVAGFAKFLKTNCCRFQEKDEDDNLIDSYFVVKRHTFSNYQHEETIYNLLKDCPAVAKHDFFKFRIDGDMVPHISRQRLTKYTMADLVYALRHFDEGNCDTLKEILVTYNCCDDDYFNKKDWYDFVENPDILRVYANLGERVRQALLKTVQFCDAMRNAGIVGVLTLDNQDLNGNWYDFGDFIQTTPGSGVPVVDSYYSLLMPILTLTRALTAESHVDTDLTKPYIKWDLLKYDFTEERLKLFDRYFKYWDQTYHPNCVNCLDDRCILHCANFNVLFSTVFPPTSFGPLVRKIFVDGVPFVVSTGYHFRELGVVHNQDVNLHSSRLSFKELLVYAADPAMHAASGNLLLDKRTTCFSVAALTNNVAFQTVKPGNFNKDFYDFAVSKGFFKEGSSVELKHFFFAQDGNAAISDYDYYRYNLPTMCDIRQLLFVVEVVDKYFDCYDGGCINANQVIVNNLDKSAGFPFNKWGKARLYYDSMSYEDQDALFAYTKRNVIPTITQMNLKYAISAKNRARTVAGVSICSTMTNRQFHQKLLKSIAATRGATVVIGTSKFYGGWHNMLKTVYSDVENPHLMGWDYPKCDRAMPNMLRIMASLVLARKHTTCCSLSHRFYRLANECAQVLSEMVMCGGSLYVKPGGTSSGDATTAYANSVFNICQAVTANVNALLSTDGNKIADKYVRNLQHRLYECLYRNRDVDTDFVNEFYAYLRKHFSMMILSDDAVVCFNSTYASQGLVASIKNFKSVLYYQNNVFMSEAKCWTETDLTKGPHEFCSQHTMLVKQGDDYVYLPYPDPSRILGAGCFVDDIVKTDGTLMIERFVSLAIDAYPLTKHPNQEYADVFHLYLQYIRKLHDELTGHMLDMYSVMLTNDNTSRYWEPEFYEAMYTPHTVLQAVGACVLCNSQTSLRCGACIRRPFLCCKCCYDHVISTSHKLVLSVNPYVCNAPGCDVTDVTQLYLGGMSYYCKSHKPPISFPLCANGQVFGLYKNTCVGSDNVTDFNAIATCDWTNAGDYILANTCTERLKLFAAETLKATEETFKLSYGIATVREVLSDRELHLSWEVGKPRPPLNRNYVFTGYRVTKNSKVQIGEYTFEKGDYGDAVVYRGTTTYKLNVGDYFVLTSHTVMPLSAPTLVPQEHYVRITGLYPTLNISDEFSSNVANYQKVGMQKYSTLQGPPGTGKSHFAIGLALYYPSARIVYTACSHAAVDALCEKALKYLPIDKCSRIIPARARVECFDKFKVNSTLEQYVFCTVNALPETTADIVVFDEISMATNYDLSVVNARLRAKHYVYIGDPAQLPAPRTLLTKGTLEPEYFNSVCRLMKTIGPDMFLGTCRRCPAEIVDTVSALVYDNKLKAHKDKSAQCFKMFYKGVITHDVSSAINRPQIGVVREFLTRNPAWRKAVFISPYNSQNAVASKILGLPTQTVDSSQGSEYDYVIFTQTTETAHSCNVNRFNVAITRAKVGILCIMSDRDLYDKLQFTSLEIPRRNVATLQAENVTGLFKDCSKVITGLHPTQAPTHLSVDTKFKTEGLCVDIPGIPKDMTYRRLISMMGFKMNYQVNGYPNMFITREEAIRHVRAWIGFDVEGCHATREAVGTNLPLQLGFSTGVNLVAVPTGYVDTPNNTDFSRVSAKPPPGDQFKHLIPLMYKGLPWNVVRIKIVQMLSDTLKNLSDRVVFVLWAHGFELTSMKYFVKIGPERTCCLCDRRATCFSTASDTYACWHHSIGFDYVYNPFMIDVQQWGFTGNLQSNHDLYCQVHGNAHVASCDAIMTRCLAVHECFVKRVDWTIEYPIIGDELKINAACRKVQHMVVKAALLADKFPVLHDIGNPKAIKCVPQADVEWKFYDAQPCSDKAYKIEELFYSYATHSDKFTDGVCLFWNCNVDRYPANSIVCRFDTRVLSNLNLPGCDGGSLYVNKHAFHTPAFDKSAFVNLKQLPFFYYSDSPCESHGKQVVSDIDYVPLKSATCITRCNLGGAVCRHHANEYRLYLDAYNMMISAGFSLWVYKQFDTYNLWNTFTRLQSLENVAFNVVNKGHFDGQQGEVPVSIINNTVYTKVDGVDVELFENKTTLPVNVAFELWAKRNIKPVPEVKILNNLGVDIAANTVIWDYKRDAPAHISTIGVCSMTDIAKKPTETICAPLTVFFDGRVDGQVDLFRNARNGVLITEGSVKGLQPSVGPKQASLNGVTLIGEAVKTQFNYYKKVDGVVQQLPETYFTQSRNLQEFKPRSQMEIDFLELAMDEFIERYKLEGYAFEHIVYGDFSHSQLGGLHLLIGLAKRFKESPFELEDFIPMDSTVKNYFITDAQTGSSKCVCSVIDLLLDDFVEIIKSQDLSVVSKVVKVTIDYTEISFMLWCKDGHVETFYPKLQSSQAWQPGVAMPNLYKMQRMLLEKCDLQNYGDSATLPKGIMMNVAKYTQLCQYLNTLTLAVPYNMRVIHFGAGSDKGVAPGTAVLRQWLPTGTLLVDSDLNDFVSDADSTLIGDCATVHTANKWDLIISDMYDPKTKNVTKENDSKEGFFTYICGFIQQKLALGGSVAIKITEHSWNADLYKLMGHFAWWTAFVTNVNASSSEAFLIGCNYLGKPREQIDGYVMHANYIFWRNTNPIQLSSYSLFDMSKFPLKLRGTAVMSLKEGQINDMILSLLSKGRLIIRENNRVVISSDVLVNN,,0.0,8.0,0.0,0.0,,False,P0DTD1,137.0,-1.9720000000000002,1.56,3.8499827128835022,0.826,0.32999999999999996,-0.3,-0.40800000000000003
AEWRNGSTSSL,HLA-A68:01,27.1034,0,4,0.1638,0.6288,,,,,,,,30556813,,AEWGSTSSL,cedar,AEWRNGSTSSL,,Negative,11,,,,,,,0.0,0.069,0.9251,HLA-B40:01,,Negative,,,,,1.0,,,44.54545454545455,2.83090909090909,-0.9363636363636364,6.410149741452187,-0.28909090909090907,-0.42,0.15181818181818177,-0.2290909090909091
AFLSTHLKLFL,HLA-A24:02,2.5102,0,9,2.9223,0.209,,,,,,,,27198675,,AFLSTHLKL,cedar,AFLSTHLKLFL,,Negative,11,,,,,,,0.0,2.5102,0.0276,HLA-A24:02,,Negative,,,,,1.0,,,150.9090909090909,-1.0245454545454544,1.2727272727272727,9.702001779340208,0.5472727272727274,0.13272727272727272,-0.07727272727272728,-0.18909090909090906
AFPVHSWYNF,HLA-A24:02,0.1909,0,6,0.0778,0.6729,,,,,,,,31511069,,AFPHSWYNF,cedar,AFPVHSWYNF,,Negative,10,,,,,,,0.0,0.1909,0.6523,HLA-A24:02,,Negative,,,,,1.0,,,39.0,0.07000000000000006,0.029999999999999895,7.542349207215011,0.41899999999999993,0.17899999999999996,-0.368,0.12400000000000003
AFQTSEKKFYI,HLA-A24:02,4.9245,0,1,4.3587,0.1625,,,,,,,,27198675,,AFQEKKFYI,cedar,AFQTSEKKFYI,,Negative,11,,,,,,,0.0,4.9245,0.0065,HLA-A24:02,,Negative,,,,,1.0,,,44.54545454545455,1.5336363636363635,-0.5181818181818181,9.25604694057256,-0.038181818181818136,0.19090909090909083,-0.08000000000000002,-0.10545454545454547
AFVEFYHF,HLA-A24:02,0.5113,0,7,0.99,0.3593,,,,,,,,"34270940,34270940",,AFVE-FYHF,cedar,AFVEFYHF,,Negative,8,,,,,,,0.0,0.5113,0.3187,HLA-A24:02,,"Negative,Negative",,,,,2.0,,,48.75,-0.3975,0.7999999999999999,5.363445803988725,0.55875,0.375,-0.37375,-0.12
AFWLFWGLTYI,HLA-A24:02,8.4283,0,8,0.5794,0.7841,,,,,,,,27198675,,ALFWGLTYI,cedar,AFWLFWGLTYI,,Negative,11,,,,,,,0.0,1.055,0.5191,HLA-A02:11,,Negative,,,,,1.0,,,115.45454545454544,-2.310909090909091,1.3909090909090909,6.093198032584041,0.9318181818181818,0.2872727272727272,-0.36909090909090914,-0.4927272727272728
AGFHVTRNGK,HLA-A11:01,1.4038,0,0,0.9233,0.5187,,,,,,,,"34270940,34270940",,AGFHVTRNK,cedar,AGFHVTRNGK,,Negative,10,,,,,,,0.0,0.9673,0.1909,HLA-A30:01,,"Negative,Negative",,,,,2.0,,,39.0,2.363,-0.78,11.651789722032845,-0.23700000000000002,-0.44299999999999995,0.6609999999999999,-0.21900000000000003
AGQHIAKSLF,HLA-B44:02,4.1901,1,6,0.5213,0.581,,,,,,,,"28678784,28678784",,AQHIAKSLF,cedar,AGQHIAKSLF,,Positive,10,,,,,,,0.5,0.3882,0.5483,HLA-B15:01,,"Positive_all,Negative",,,,,2.0,,,98.0,0.17699999999999982,0.28999999999999987,9.702001779340208,0.10200000000000002,-0.3529999999999999,0.30399999999999994,-0.277
AHAEETRKL,HLA-C06:02,0.295,1,2,,,AHAEETRKL,0.0,0.0,AHAEETRKL,0.0,0.0,0.0,,HLA-C0602,,viral,,26312.0,,9,0.0,0.0,0.0,1.0,1379.0,1387.0,,,,,MESLVPGFNEKTHVQLSLPVLQVRDVLVRGFGDSVEEVLSEARQHLKDGTCGLVEVEKGVLPQLEQPYVFIKRSDARTAPHGHVMVELVAELEGIQYGRSGETLGVLVPHVGEIPVAYRKVLLRKNGNKGAGGHSYGADLKSFDLGDELGTDPYEDFQENWNTKHSSGVTRELMRELNGGAYTRYVDNNFCGPDGYPLECIKDLLARAGKASCTLSEQLDFIDTKRGVYCCREHEHEIAWYTERSEKSYELQTPFEIKLAKKFDTFNGECPNFVFPLNSIIKTIQPRVEKKKLDGFMGRIRSVYPVASPNECNQMCLSTLMKCDHCGETSWQTGDFVKATCEFCGTENLTKEGATTCGYLPQNAVVKIYCPACHNSEVGPEHSLAEYHNESGLKTILRKGGRTIAFGGCVFSYVGCHNKCAYWVPRASANIGCNHTGVVGEGSEGLNDNLLEILQKEKVNINIVGDFKLNEEIAIILASFSASTSAFVETVKGLDYKAFKQIVESCGNFKVTKGKAKKGAWNIGEQKSILSPLYAFASEAARVVRSIFSRTLETAQNSVRVLQKAAITILDGISQYSLRLIDAMMFTSDLATNNLVVMAYITGGVVQLTSQWLTNIFGTVYEKLKPVLDWLEEKFKEGVEFLRDGWEIVKFISTCACEIVGGQIVTCAKEIKESVQTFFKLVNKFLALCADSIIIGGAKLKALNLGETFVTHSKGLYRKCVKSREETGLLMPLKAPKEIIFLEGETLPTEVLTEEVVLKTGDLQPLEQPTSEAVEAPLVGTPVCINGLMLLEIKDTEKYCALAPNMMVTNNTFTLKGGAPTKVTFGDDTVIEVQGYKSVNITFELDERIDKVLNEKCSAYTVELGTEVNEFACVVADAVIKTLQPVSELLTPLGIDLDEWSMATYYLFDESGEFKLASHMYCSFYPPDEDEEEGDCEEEEFEPSTQYEYGTEDDYQGKPLEFGATSAALQPEEEQEEDWLDDDSQQTVGQQDGSEDNQTTTIQTIVEVQPQLEMELTPVVQTIEVNSFSGYLKLTDNVYIKNADIVEEAKKVKPTVVVNAANVYLKHGGGVAGALNKATNNAMQVESDDYIATNGPLKVGGSCVLSGHNLAKHCLHVVGPNVNKGEDIQLLKSAYENFNQHEVLLAPLLSAGIFGADPIHSLRVCVDTVRTNVYLAVFDKNLYDKLVSSFLEMKSEKQVEQKIAEIPKEEVKPFITESKPSVEQRKQDDKKIKACVEEVTTTLEETKFLTENLLLYIDINGNLHPDSATLVSDIDITFLKKDAPYIVGDVVQEGVLTAVVIPTKKAGGTTEMLAKALRKVPTDNYITTYPGQGLNGYTVEEAKTVLKKCKSAFYILPSIISNEKQEILGTVSWNLREMLAHAEETRKLMPVCVETKAIVSTIQRKYKGIKIQEGVVDYGARFYFYTSKTTVASLINTLNDLNETLVTMPLGYVTHGLNLEEAARYMRSLKVPATVSVSSPDAVTAYNGYLTSSSKTPEEHFIETISLAGSYKDWSYSGQSTQLGIEFLKRGDKSVYYTSNPTTFHLDGEVITFDNLKTLLSLREVRTIKVFTTVDNINLHTQVVDMSMTYGQQFGPTYLDGADVTKIKPHNSHEGKTFYVLPNDDTLRVEAFEYYHTTDPSFLGRYMSALNHTKKWKYPQVNGLTSIKWADNNCYLATALLTLQQIELKFNPPALQDAYYRARAGEAANFCALILAYCNKTVGELGDVRETMSYLFQHANLDSCKRVLNVVCKTCGQQQTTLKGVEAVMYMGTLSYEQFKKGVQIPCTCGKQATKYLVQQESPFVMMSAPPAQYELKHGTFTCASEYTGNYQCGHYKHITSKETLYCIDGALLTKSSEYKGPITDVFYKENSYTTTIKPVTYKLDGVVCTEIDPKLDNYYKKDNSYFTEQPIDLVPNQPYPNASFDNFKFVCDNIKFADDLNQLTGYKKPASRELKVTFFPDLNGDVVAIDYKHYTPSFKKGAKLLHKPIVWHVNNATNKATYKPNTWCIRCLWSTKPVETSNSFDVLKSEDAQGMDNLACEDLKPVSEEVVENPTIQKDVLECNVKTTEVVGDIILKPANNSLKITEEVGHTDLMAAYVDNSSLTIKKPNELSRVLGLKTLATHGLAAVNSVPWDTIANYAKPFLNKVVSTTTNIVTRCLNRVCTNYMPYFFTLLLQLCTFTRSTNSRIKASMPTTIAKNTVKSVGKFCLEASFNYLKSPNFSKLINIIIWFLLLSVCLGSLIYSTAALGVLMSNLGMPSYCTGYREGYLNSTNVTIATYCTGSIPCSVCLSGLDSLDTYPSLETIQITISSFKWDLTAFGLVAEWFLAYILFTRFFYVLGLAAIMQLFFSYFAVHFISNSWLMWLIINLVQMAPISAMVRMYIFFASFYYVWKSYVHVVDGCNSSTCMMCYKRNRATRVECTTIVNGVRRSFYVYANGGKGFCKLHNWNCVNCDTFCAGSTFISDEVARDLSLQFKRPINPTDQSSYIVDSVTVKNGSIHLYFDKAGQKTYERHSLSHFVNLDNLRANNTKGSLPINVIVFDGKSKCEESSAKSASVYYSQLMCQPILLLDQALVSDVGDSAEVAVKMFDAYVNTFSSTFNVPMEKLKTLVATAEAELAKNVSLDNVLSTFISAARQGFVDSDVETKDVVECLKLSHQSDIEVTGDSCNNYMLTYNKVENMTPRDLGACIDCSARHINAQVAKSHNIALIWNVKDFMSLSEQLRKQIRSAAKKNNLPFKLTCATTRQVVNVVTTKIALKGGKIVNNWLKQLIKVTLVFLFVAAIFYLITPVHVMSKHTDFSSEIIGYKAIDGGVTRDIASTDTCFANKHADFDTWFSQRGGSYTNDKACPLIAAVITREVGFVVPGLPGTILRTTNGDFLHFLPRVFSAVGNICYTPSKLIEYTDFATSACVLAAECTIFKDASGKPVPYCYDTNVLEGSVAYESLRPDTRYVLMDGSIIQFPNTYLEGSVRVVTTFDSEYCRHGTCERSEAGVCVSTSGRWVLNNDYYRSLPGVFCGVDAVNLLTNMFTPLIQPIGALDISASIVAGGIVAIVVTCLAYYFMRFRRAFGEYSHVVAFNTLLFLMSFTVLCLTPVYSFLPGVYSVIYLYLTFYLTNDVSFLAHIQWMVMFTPLVPFWITIAYIICISTKHFYWFFSNYLKRRVVFNGVSFSTFEEAALCTFLLNKEMYLKLRSDVLLPLTQYNRYLALYNKYKYFSGAMDTTSYREAACCHLAKALNDFSNSGSDVLYQPPQTSITSAVLQSGFRKMAFPSGKVEGCMVQVTCGTTTLNGLWLDDVVYCPRHVICTSEDMLNPNYEDLLIRKSNHNFLVQAGNVQLRVIGHSMQNCVLKLKVDTANPKTPKYKFVRIQPGQTFSVLACYNGSPSGVYQCAMRPNFTIKGSFLNGSCGSVGFNIDYDCVSFCYMHHMELPTGVHAGTDLEGNFYGPFVDRQTAQAAGTDTTITVNVLAWLYAAVINGDRWFLNRFTTTLNDFNLVAMKYNYEPLTQDHVDILGPLSAQTGIAVLDMCASLKELLQNGMNGRTILGSALLEDEFTPFDVVRQCSGVTFQSAVKRTIKGTHHWLLLTILTSLLVLVQSTQWSLFFFLYENAFLPFAMGIIAMSAFAMMFVKHKHAFLCLFLLPSLATVAYFNMVYMPASWVMRIMTWLDMVDTSLSGFKLKDCVMYASAVVLLILMTARTVYDDGARRVWTLMNVLTLVYKVYYGNALDQAISMWALIISVTSNYSGVVTTVMFLARGIVFMCVEYCPIFFITGNTLQCIMLVYCFLGYFCTCYFGLFCLLNRYFRLTLGVYDYLVSTQEFRYMNSQGLLPPKNSIDAFKLNIKLLGVGGKPCIKVATVQSKMSDVKCTSVVLLSVLQQLRVESSSKLWAQCVQLHNDILLAKDTTEAFEKMVSLLSVLLSMQGAVDINKLCEEMLDNRATLQAIASEFSSLPSYAAFATAQEAYEQAVANGDSEVVLKKLKKSLNVAKSEFDRDAAMQRKLEKMADQAMTQMYKQARSEDKRAKVTSAMQTMLFTMLRKLDNDALNNIINNARDGCVPLNIIPLTTAAKLMVVIPDYNTYKNTCDGTTFTYASALWEIQQVVDADSKIVQLSEISMDNSPNLAWPLIVTALRANSAVKLQNNELSPVALRQMSCAAGTTQTACTDDNALAYYNTTKGGRFVLALLSDLQDLKWARFPKSDGTGTIYTELEPPCRFVTDTPKGPKVKYLYFIKGLNNLNRGMVLGSLAATVRLQAGNATEVPANSTVLSFCAFAVDAAKAYKDYLASGGQPITNCVKMLCTHTGTGQAITVTPEANMDQESFGGASCCLYCRCHIDHPNPKGFCDLKGKYVQIPTTCANDPVGFTLKNTVCTVCGMWKGYGCSCDQLREPMLQSADAQSFLNRVCGVSAARLTPCGTGTSTDVVYRAFDIYNDKVAGFAKFLKTNCCRFQEKDEDDNLIDSYFVVKRHTFSNYQHEETIYNLLKDCPAVAKHDFFKFRIDGDMVPHISRQRLTKYTMADLVYALRHFDEGNCDTLKEILVTYNCCDDDYFNKKDWYDFVENPDILRVYANLGERVRQALLKTVQFCDAMRNAGIVGVLTLDNQDLNGNWYDFGDFIQTTPGSGVPVVDSYYSLLMPILTLTRALTAESHVDTDLTKPYIKWDLLKYDFTEERLKLFDRYFKYWDQTYHPNCVNCLDDRCILHCANFNVLFSTVFPPTSFGPLVRKIFVDGVPFVVSTGYHFRELGVVHNQDVNLHSSRLSFKELLVYAADPAMHAASGNLLLDKRTTCFSVAALTNNVAFQTVKPGNFNKDFYDFAVSKGFFKEGSSVELKHFFFAQDGNAAISDYDYYRYNLPTMCDIRQLLFVVEVVDKYFDCYDGGCINANQVIVNNLDKSAGFPFNKWGKARLYYDSMSYEDQDALFAYTKRNVIPTITQMNLKYAISAKNRARTVAGVSICSTMTNRQFHQKLLKSIAATRGATVVIGTSKFYGGWHNMLKTVYSDVENPHLMGWDYPKCDRAMPNMLRIMASLVLARKHTTCCSLSHRFYRLANECAQVLSEMVMCGGSLYVKPGGTSSGDATTAYANSVFNICQAVTANVNALLSTDGNKIADKYVRNLQHRLYECLYRNRDVDTDFVNEFYAYLRKHFSMMILSDDAVVCFNSTYASQGLVASIKNFKSVLYYQNNVFMSEAKCWTETDLTKGPHEFCSQHTMLVKQGDDYVYLPYPDPSRILGAGCFVDDIVKTDGTLMIERFVSLAIDAYPLTKHPNQEYADVFHLYLQYIRKLHDELTGHMLDMYSVMLTNDNTSRYWEPEFYEAMYTPHTVLQAVGACVLCNSQTSLRCGACIRRPFLCCKCCYDHVISTSHKLVLSVNPYVCNAPGCDVTDVTQLYLGGMSYYCKSHKPPISFPLCANGQVFGLYKNTCVGSDNVTDFNAIATCDWTNAGDYILANTCTERLKLFAAETLKATEETFKLSYGIATVREVLSDRELHLSWEVGKPRPPLNRNYVFTGYRVTKNSKVQIGEYTFEKGDYGDAVVYRGTTTYKLNVGDYFVLTSHTVMPLSAPTLVPQEHYVRITGLYPTLNISDEFSSNVANYQKVGMQKYSTLQGPPGTGKSHFAIGLALYYPSARIVYTACSHAAVDALCEKALKYLPIDKCSRIIPARARVECFDKFKVNSTLEQYVFCTVNALPETTADIVVFDEISMATNYDLSVVNARLRAKHYVYIGDPAQLPAPRTLLTKGTLEPEYFNSVCRLMKTIGPDMFLGTCRRCPAEIVDTVSALVYDNKLKAHKDKSAQCFKMFYKGVITHDVSSAINRPQIGVVREFLTRNPAWRKAVFISPYNSQNAVASKILGLPTQTVDSSQGSEYDYVIFTQTTETAHSCNVNRFNVAITRAKVGILCIMSDRDLYDKLQFTSLEIPRRNVATLQAENVTGLFKDCSKVITGLHPTQAPTHLSVDTKFKTEGLCVDIPGIPKDMTYRRLISMMGFKMNYQVNGYPNMFITREEAIRHVRAWIGFDVEGCHATREAVGTNLPLQLGFSTGVNLVAVPTGYVDTPNNTDFSRVSAKPPPGDQFKHLIPLMYKGLPWNVVRIKIVQMLSDTLKNLSDRVVFVLWAHGFELTSMKYFVKIGPERTCCLCDRRATCFSTASDTYACWHHSIGFDYVYNPFMIDVQQWGFTGNLQSNHDLYCQVHGNAHVASCDAIMTRCLAVHECFVKRVDWTIEYPIIGDELKINAACRKVQHMVVKAALLADKFPVLHDIGNPKAIKCVPQADVEWKFYDAQPCSDKAYKIEELFYSYATHSDKFTDGVCLFWNCNVDRYPANSIVCRFDTRVLSNLNLPGCDGGSLYVNKHAFHTPAFDKSAFVNLKQLPFFYYSDSPCESHGKQVVSDIDYVPLKSATCITRCNLGGAVCRHHANEYRLYLDAYNMMISAGFSLWVYKQFDTYNLWNTFTRLQSLENVAFNVVNKGHFDGQQGEVPVSIINNTVYTKVDGVDVELFENKTTLPVNVAFELWAKRNIKPVPEVKILNNLGVDIAANTVIWDYKRDAPAHISTIGVCSMTDIAKKPTETICAPLTVFFDGRVDGQVDLFRNARNGVLITEGSVKGLQPSVGPKQASLNGVTLIGEAVKTQFNYYKKVDGVVQQLPETYFTQSRNLQEFKPRSQMEIDFLELAMDEFIERYKLEGYAFEHIVYGDFSHSQLGGLHLLIGLAKRFKESPFELEDFIPMDSTVKNYFITDAQTGSSKCVCSVIDLLLDDFVEIIKSQDLSVVSKVVKVTIDYTEISFMLWCKDGHVETFYPKLQSSQAWQPGVAMPNLYKMQRMLLEKCDLQNYGDSATLPKGIMMNVAKYTQLCQYLNTLTLAVPYNMRVIHFGAGSDKGVAPGTAVLRQWLPTGTLLVDSDLNDFVSDADSTLIGDCATVHTANKWDLIISDMYDPKTKNVTKENDSKEGFFTYICGFIQQKLALGGSVAIKITEHSWNADLYKLMGHFAWWTAFVTNVNASSSEAFLIGCNYLGKPREQIDGYVMHANYIFWRNTNPIQLSSYSLFDMSKFPLKLRGTAVMSLKEGQINDMILSLLSKGRLIIRENNRVVISSDVLVNN,,2.0,3.0,1.0,0.95,,False,P0DTD1,65.55555555555554,3.6422222222222214,-1.3222222222222224,7.550711068324745,-0.4566666666666667,-0.042222222222222244,0.6322222222222221,0.05111111111111112
AHFQLQML,HLA-B38:01,0.2041,0,0,0.7527,0.2606,,,,,,,,29895573,,AHFQLQ-ML,cedar,AHFQLQML,,Negative,8,,,,,,,0.0,0.2041,0.5251,HLA-B38:01,,Negative,,,,,1.0,,,110.00000000000001,-0.15499999999999992,0.4874999999999998,7.550323993898928,0.3812500000000001,0.18624999999999997,-0.14250000000000002,-0.34625
AHFQLQML,HLA-B39:01,0.211,0,0,0.7527,0.2606,,,,,,,,29895573,,AHFQLQ-ML,cedar,AHFQLQML,,Negative,8,,,,,,,0.0,0.2041,0.5251,HLA-B38:01,,Negative,,,,,1.0,,,110.00000000000001,-0.15499999999999992,0.4874999999999998,7.550323993898928,0.3812500000000001,0.18624999999999997,-0.14250000000000002,-0.34625
AIAKFNFNA,HLA-A02:01,1.7613,0,6,0.9607,0.5889,,,,,,,,31511069,,AIAKFNFNA,cedar,AIAKFNFNA,,Negative,9,,,,,,,0.0,0.9506,0.2471,HLA-A02:06,,Negative,,,,,1.0,,,76.66666666666666,0.2799999999999998,0.5111111111111111,9.700002531521022,0.17888888888888888,-0.2077777777777778,0.14999999999999997,-0.38222222222222224
AIDAALTFV,HLA-A02:01,0.3296,1,7,0.0798,0.5768,,,,,,,,"31921104,31921104,31921104,31921104,31921104",,AIDAALTFV,cedar,AIDAALTFV,,Positive,9,,,,,,,0.8,0.1312,0.6939,HLA-C05:01,,"Positive_all,Negative,Positive_all,Positive_all,Positive_all",,,,,5.0,,,152.22222222222223,-1.2222222222222223,1.8333333333333333,3.7499873605556786,0.43,-0.39555555555555555,-0.1477777777777778,-0.16333333333333333
AIKESPKANK,HLA-A11:01,0.5076,1,8,0.5469,0.5301,,,,,,,,"34244308,34244308,34244308",,AIKESPANK,cedar,AIKESPKANK,,Positive,10,,,,,,,0.3333333333333333,0.1247,0.8043,HLA-A03:01,,"Negative,Negative,Positive_all",,,,,3.0,,,59.00000000000001,2.496,-1.3000000000000003,10.506918999366462,-0.45599999999999996,-0.21400000000000005,0.626,0.21899999999999994
AIKTSPKANK,HLA-A30:01,0.193,0,8,0.475,0.5475,,,,,,,,"34244308,34244308,34244308,34244308",,AIKTSPANK,cedar,AIKTSPKANK,,Negative,10,,,,,,,0.0,0.1558,0.7585,HLA-A03:01,,"Negative,Negative,Negative,Negative",,,,,4.0,,,59.00000000000001,2.072,-1.02,11.103070736862719,-0.372,-0.279,0.45599999999999985,0.25599999999999995
AIKTSPKANK,HLA-A03:01,0.1558,1,8,0.475,0.5475,,,,,,,,"34244308,34244308",,AIKTSPANK,cedar,AIKTSPKANK,,Positive,10,,,,,,,0.5,0.1558,0.7585,HLA-A03:01,,"Positive_all,Negative",,,,,2.0,,,59.00000000000001,2.072,-1.02,11.103070736862719,-0.372,-0.279,0.45599999999999985,0.25599999999999995
AILLGAEEK,HLA-A11:01,0.3346,0,3,0.5492,0.5784,,,,,,,,"34244308,34244308",,AILLGAEEK,cedar,AILLGAEEK,,Negative,9,,,,,,,0.0,0.3346,0.5329,HLA-A11:01,,"Negative,Negative",,,,,2.0,,,152.22222222222223,-0.016666666666666805,0.4888888888888887,4.258147296961397,0.062222222222222325,-0.37888888888888883,0.6866666666666666,-0.3888888888888889
AILPFTPEF,HLA-B35:01,0.6998,0,1,2.3255,0.321,,,,,,,,27198675,,AILPFTPEF,cedar,AILPFTPEF,,Negative,9,,,,,,,0.0,0.251,0.39,HLA-A02:10,,Negative,,,,,1.0,,,97.77777777777776,-0.9144444444444445,0.9222222222222223,3.849983240943402,0.5266666666666667,-0.024444444444444467,-0.29333333333333333,0.6555555555555554
AILPFTPEFL,HLA-A02:01,0.779,0,1,0.848,0.4384,,,,,,,,"27198675,27198675,27198675,27198675",,AILPFTPEL,cedar,AILPFTPEFL,,Negative,10,,,,,,,0.0,0.5554,0.2114,HLA-A02:10,,"Negative,Negative,Negative,Negative",,,,,4.0,,,127.00000000000003,-1.315,1.2100000000000002,3.849983240943402,0.6100000000000001,0.01399999999999998,-0.256,0.5279999999999999
AILPFTPEFLV,HLA-A02:01,0.636,0,1,0.6203,0.6405,,,,,,,,27198675,,AILPFTPEV,cedar,AILPFTPEFLV,,Negative,11,,,,,,,0.0,0.4395,0.4425,HLA-A02:06,,Negative,,,,,1.0,,,141.8181818181818,-1.5627272727272727,1.481818181818182,3.849983240943402,0.6236363636363637,-0.0027272727272727474,-0.2545454545454545,0.4772727272727272
AISKLGINY,HLA-A01:01,0.735,0,0,,,AISKLGINY,0.0,0.0,AISKLGINY,0.0,0.0,0.0,,HLA-A0101,,viral,,2836.0,,9,0.0,0.0,1.0,0.0,67.0,75.0,,,,,MMPIKSIVTLDQLEDSEYLFRIVSTVLPHLCLDYKVCDKLKTTFVHPFDILLNNSLGSVTKQDELQAAISKLGINYLIDTTSRELKLFNVTLNAGNIDIINTPINISSETNPIINTHSFYDLPPFTQHLLNIRLTDTEYRARFIGGYIKPDGSDSMDVLAEKKYPDLNFDNTYLFNILYKDVINAPIKEFKAKIVNGVLSRQDFDNLIGVRQYITAQDRPRFDNTYNIADAARHYGVNLNTLPLPNVDLTTMPTYKHLIMFEQYFIYTYDRVDIYYNGNKMLFDDEIMNFCISMRYQSLIPRLVDFFPDIPVNNNIVLHTRDPQNAAVNVTVALPNVQFVDINRNNKFFINFFNLLAKEQRSTAIKVTKSMFWDGMDYEEYKSKNLQDMMFINSTCYVFGLYNHNNTTYCSILSDIISAEKTPIRVCLLPRVVGGKTVTNLISETLKSISSMTIREFPRKDKSIMHIGLSETGFMRFFQLLRLMADKPHETAIKEVVMAYVGIKLGDKGSPYYIRKESYQDFIYLLFASMGFKVTTRRSIMGSNNISIISIRPRVTKQYIVTTLMKTSCSKNEAEKLITSAFDLLNFMVSVSDFRDYQSYRQYRNYCPRYFYAGSPEGEETIICDSEPISILDRIDTRGIFSAYTINEMMDTDIFSPENKAFKNNLSRFIESGDITGEDIFCAMPYNILDRIITNAGTCTVSIGDMLDNITTQSDCNMTNEITDMINASLKNTISKDNNMLVSQALNSVANRSKQTIGDLRQSSCKMALLFKNLATSIYTIERIFNAKVGDDVKASMLEKYKVFTDISMSLYKDLIAMENLKAMLYIIRRSGCRIDDAQITTDDLVKSYSLIRPKILSMINYYNEMSRGYFEHMKKNLNMTDGDSVSFDDE,,0.0,4.0,0.0,0.0,,True,P20642,141.1111111111111,-0.19777777777777786,0.5222222222222223,9.298300650902092,0.18111111111111114,-0.28777777777777774,0.32111111111111107,-0.42000000000000004
AISLLSLPL,HLA-A02:01,4.1611,0,1,1.6552,0.318,,,,,,,,27198675,,AISLLSLPL,cedar,AISLLSLPL,,Negative,9,,,,,,,0.0,2.3871,0.0437,HLA-B07:02,,Negative,,,,,1.0,,,227.77777777777777,-2.178888888888889,2.033333333333333,6.099999998230487,0.6377777777777778,-0.25000000000000006,-0.10555555555555558,0.07666666666666662
AISPGGVQEAL,HLA-B07:02,0.8556,0,4,2.6343,0.251,,,,,,,,27198675,,APGGVQEAL,cedar,AISPGGVQEAL,,Negative,11,,,,,,,0.0,0.8556,0.2237,HLA-B07:02,,Negative,,,,,1.0,,,115.45454545454545,-0.33000000000000007,0.5363636363636363,3.849983240943402,0.06363636363636364,-0.7963636363636365,0.3909090909090909,-0.10363636363636365
AITSPKANK,HLA-A11:02,0.0881,0,8,0.3562,0.5814,,,,,,,,"34244308,34244308",,AITSPKANK,cedar,AITSPKANK,,Negative,9,,,,,,,0.0,0.0732,0.8583,HLA-A03:01,,"Negative,Negative",,,,,2.0,,,65.55555555555554,1.6855555555555553,-0.7000000000000001,10.805379563011229,-0.2833333333333333,-0.3877777777777778,0.32555555555555554,0.27
AIVEFPVPA,HLA-A02:01,0.4923,0,0,0.263,0.7243,,,,,,,,31511069,,AIVEFPVPA,cedar,AIVEFPVPA,,Negative,9,,,,,,,0.0,0.236,0.6148,HLA-A02:06,,Negative,,,,,1.0,,,129.99999999999997,-1.4211111111111112,1.4000000000000001,3.849983240943402,0.42999999999999994,-0.2977777777777778,-0.08000000000000002,0.6433333333333334
AIVVILMSMV,HLA-A02:01,8.1741,0,9,2.0399,0.5531,,,,,,,,31511069,,AIVVILMSV,cedar,AIVVILMSMV,,Negative,10,,,,,,,0.0,5.8218,0.0169,HLA-A02:03,,Negative,,,,,1.0,,,214.0,-2.999,3.02,6.099999998230487,0.768,-0.11100000000000003,-0.296,-0.26999999999999996
AIYHTLNLFNI,HLA-A02:01,5.8573,0,0,3.3228,0.5239,,,,,,,,31511069,,AIYHNLFNI,cedar,AIYHTLNLFNI,,Negative,11,,,,,,,0.0,4.7163,0.0889,HLA-A02:11,,Negative,,,,,1.0,,,150.9090909090909,-0.3472727272727274,0.8181818181818182,7.542349207215011,0.43545454545454537,0.10727272727272727,-0.044545454545454555,-0.29636363636363633
AIYKQSQR,HLA-A03:01,2.2008,0,8,4.4386,0.3041,,,,,,,,31511069,,AIY-KQSQR,cedar,AIYKQSQR,,Negative,8,,,,,,,0.0,1.8385,0.152,HLA-A31:01,,Negative,,,,,1.0,,,61.25000000000001,3.545,-1.4000000000000001,10.454924617893994,-0.39999999999999997,0.16874999999999996,0.14125,-0.11
AKNCGIAIPV,HLA-B07:02,52.6923,0,5,4.2239,0.1514,,,,,,,,27198675,,AKNGIAIPV,cedar,AKNCGIAIPV,,Negative,10,,,,,,,0.0,12.5428,0.0052,HLA-B39:06,,Negative,,,,,1.0,,,127.0,-0.753,0.9899999999999999,8.545189979486167,0.164,-0.553,0.27299999999999996,0.011000000000000013
AKTYETTLEK,HLA-A11:01,0.0083,0,5,0.0357,0.781,,,,,,,,"34270940,34270940",,ATYETTLEK,cedar,AKTYETTLEK,,Negative,10,,,,,,,0.0,0.0083,0.9633,HLA-A11:01,,"Negative,Negative",,,,,2.0,,,49.0,2.584,-1.26,6.523989745415747,-0.36,0.012999999999999956,0.21899999999999994,-0.01499999999999999
ALAAGSCLV,HLA-A02:01,0.4673,0,1,0.0546,0.8553,,,,,,,,31511069,,ALAAGSCLV,cedar,ALAAGSCLV,,Negative,9,,,,,,,0.0,0.195,0.6314,HLA-A02:03,,Negative,,,,,1.0,,,152.22222222222223,-2.014444444444445,2.0555555555555554,5.922539790626615,0.36000000000000004,-0.8511111111111112,0.08444444444444439,-0.4588888888888889
ALADLAGFK,HLA-A11:01,0.2921,0,8,0.0336,0.7345,,,,,,,,27198675,,ALADLAGFK,cedar,ALADLAGFK,,Negative,9,,,,,,,0.0,0.0648,0.8372,HLA-A03:02,,Negative,,,,,1.0,,,120.0,-0.5466666666666667,0.8888888888888887,6.3373671672306955,0.24111111111111116,-0.5233333333333333,0.39777777777777773,-0.39222222222222225
ALADLAGFKEL,HLA-A02:01,0.7501,0,8,1.0556,0.648,,,,,,,,27198675,,ALADGFKEL,cedar,ALADLAGFKEL,,Negative,11,,,,,,,0.0,0.2372,0.6977,HLA-A02:02,,Negative,,,,,1.0,,,133.63636363636363,-0.27545454545454556,0.7545454545454543,4.184407519642264,0.21363636363636368,-0.38636363636363635,0.4154545454545454,-0.37545454545454543
ALAFTPVEQV,HLA-A02:01,0.2253,0,2,0.3031,0.7652,,,,,,,,27198675,,ALFTPVEQV,cedar,ALAFTPVEQV,,Negative,10,,,,,,,0.0,0.1248,0.7312,HLA-A02:03,,Negative,,,,,1.0,,,117.0,-0.46799999999999997,0.93,3.849983240943402,0.24399999999999994,-0.24900000000000003,-0.128,0.17200000000000001
ALAFTPVEQVV,HLA-A02:01,0.7099,0,2,1.9353,0.5656,,,,,,,,27198675,,ALAPVEQVV,cedar,ALAFTPVEQVV,,Negative,11,,,,,,,0.0,0.4822,0.5296,HLA-A02:02,,Negative,,,,,1.0,,,132.72727272727272,-0.7927272727272726,1.2272727272727273,3.849983240943402,0.29090909090909084,-0.24181818181818182,-0.13818181818181818,0.15363636363636365
ALAKETQFW,HLA-A24:02,1.3863,0,5,0.2694,0.3537,,,,,,,,27198675,,ALAKETQFW,cedar,ALAKETQFW,,Negative,9,,,,,,,0.0,0.1084,0.5571,HLA-B44:08,,Negative,,,,,1.0,,,65.55555555555554,0.7355555555555555,-0.2555555555555556,6.408795645926148,0.11444444444444445,0.09333333333333331,0.0011111111111110628,-0.2777777777777778
ALALAQKGV,HLA-A02:01,1.0758,1,7,0.521,0.7184,,,,,,,,"27198675,27198675,27198675,27198675",,ALALAQKGV,cedar,ALALAQKGV,,Positive,9,,,,,,,0.5,0.2806,0.5482,HLA-A02:03,,"Positive_all,Positive_all,Negative,Negative",,,,,4.0,,,152.22222222222223,-1.017777777777778,1.0444444444444443,9.700002531521022,0.1777777777777778,-0.5833333333333334,0.4933333333333333,-0.4811111111111111
ALALAQKGVQL,HLA-B07:02,7.3651,0,7,4.8097,0.417,,,,,,,,27198675,,ALAQKGVQL,cedar,ALALAQKGVQL,,Negative,11,,,,,,,0.0,0.936,0.3442,HLA-A02:02,,Negative,,,,,1.0,,,160.0,-0.7763636363636363,0.8818181818181817,9.700002531521022,0.18181818181818185,-0.42818181818181816,0.39272727272727265,-0.4872727272727273
ALAQERWRCLV,HLA-A02:01,2.5237,0,2,2.5405,0.5759,,,,,,,,27198675,,ALAQERWLV,cedar,ALAQERWRCLV,,Negative,11,,,,,,,0.0,1.9233,0.3113,HLA-A02:11,,Negative,,,,,1.0,,,115.45454545454545,1.9163636363636363,0.09090909090909091,8.549845238216221,0.03454545454545455,0.17636363636363636,0.12090909090909091,-0.18181818181818182
ALAQKGVQL,HLA-A02:01,0.2014,0,4,1.1361,0.638,,,,,,,,"27198675,27198675,27198675,27198675",,ALAQKGVQL,cedar,ALAQKGVQL,,Negative,9,,,,,,,0.0,0.0477,0.9059,HLA-A02:02,,"Negative,Negative,Negative,Negative",,,,,4.0,,,141.1111111111111,-0.2011111111111112,0.4555555555555555,9.700002531521022,0.05444444444444448,-0.41333333333333333,0.4311111111111111,-0.47333333333333333
ALAQKGVQL,HLA-B07:02,0.9954,0,4,1.1361,0.638,,,,,,,,"27198675,27198675",,ALAQKGVQL,cedar,ALAQKGVQL,,Negative,9,,,,,,,0.0,0.0477,0.9059,HLA-A02:02,,"Negative,Negative",,,,,2.0,,,141.1111111111111,-0.2011111111111112,0.4555555555555555,9.700002531521022,0.05444444444444448,-0.41333333333333333,0.4311111111111111,-0.47333333333333333
ALAQKGVQLGL,HLA-A02:01,1.0357,0,4,1.9183,0.567,,,,,,,,27198675,,ALAGVQLGL,cedar,ALAQKGVQLGL,,Negative,11,,,,,,,0.0,0.6559,0.444,HLA-A02:02,,Negative,,,,,1.0,,,150.90909090909088,-0.6972727272727274,0.6818181818181818,9.700002531521022,0.15000000000000002,-0.5445454545454544,0.5427272727272727,-0.5654545454545454
ALAQKGVQLGL,HLA-B07:02,7.217,0,4,1.9183,0.567,,,,,,,,27198675,,ALAGVQLGL,cedar,ALAQKGVQLGL,,Negative,11,,,,,,,0.0,0.6559,0.444,HLA-A02:02,,Negative,,,,,1.0,,,150.90909090909088,-0.6972727272727274,0.6818181818181818,9.700002531521022,0.15000000000000002,-0.5445454545454544,0.5427272727272727,-0.5654545454545454
ALAVIELYNA,HLA-A02:01,3.1291,0,2,1.1792,0.6326,,,,,,,,31511069,,ALAVELYNA,cedar,ALAVIELYNA,,Negative,10,,,,,,,0.0,3.0351,0.0916,HLA-A02:02,,Negative,,,,,1.0,,,176.00000000000003,-1.0640000000000003,1.34,3.8499827128835022,0.364,-0.23000000000000007,0.152,-0.41400000000000003
ALAVKALYPV,HLA-A02:01,1.4656,0,9,0.08,0.8423,,,,,,,,31511069,,ALAKALYPV,cedar,ALAVKALYPV,,Negative,10,,,,,,,0.0,0.9766,0.238,HLA-A02:03,,Negative,,,,,1.0,,,166.0,-1.766,1.4600000000000002,9.298300650902092,0.43500000000000005,-0.23000000000000007,0.124,0.04299999999999995
ALCGQCVRI,HLA-A02:01,1.6344,0,8,1.8216,0.1847,,,,,,,,"27198675,27198675,27198675,27198675",,ALCGQCVRI,cedar,ALCGQCVRI,,Negative,9,,,,,,,0.0,1.3812,0.187,HLA-B13:02,,"Negative,Negative,Negative,Negative",,,,,4.0,,,129.99999999999997,0.14111111111111108,1.211111111111111,8.231408963911235,0.1411111111111111,-0.33222222222222225,-0.007777777777777818,-0.2844444444444444
ALCRHEYPL,HLA-A02:01,1.4799,0,9,0.9094,0.7338,,,,,,,,31511069,,ALCRHEYPL,cedar,ALCRHEYPL,,Negative,9,,,,,,,0.0,1.4191,0.4165,HLA-A02:11,,Negative,,,,,1.0,,,97.77777777777776,1.511111111111111,-0.24444444444444466,7.3565633008256555,0.0888888888888889,0.1433333333333333,0.1,0.2922222222222222
ALCTFLLNK,HLA-A11:01,0.263,1,8,,,ALCTFLLNK,0.0,0.0,ALCTFLLNK,0.0,0.0,0.0,,HLA-A1101,,viral,,26113.0,,9,0.0,0.0,0.0,1.0,3178.0,3186.0,,,,,MESLVPGFNEKTHVQLSLPVLQVRDVLVRGFGDSVEEVLSEARQHLKDGTCGLVEVEKGVLPQLEQPYVFIKRSDARTAPHGHVMVELVAELEGIQYGRSGETLGVLVPHVGEIPVAYRKVLLRKNGNKGAGGHSYGADLKSFDLGDELGTDPYEDFQENWNTKHSSGVTRELMRELNGGAYTRYVDNNFCGPDGYPLECIKDLLARAGKASCTLSEQLDFIDTKRGVYCCREHEHEIAWYTERSEKSYELQTPFEIKLAKKFDTFNGECPNFVFPLNSIIKTIQPRVEKKKLDGFMGRIRSVYPVASPNECNQMCLSTLMKCDHCGETSWQTGDFVKATCEFCGTENLTKEGATTCGYLPQNAVVKIYCPACHNSEVGPEHSLAEYHNESGLKTILRKGGRTIAFGGCVFSYVGCHNKCAYWVPRASANIGCNHTGVVGEGSEGLNDNLLEILQKEKVNINIVGDFKLNEEIAIILASFSASTSAFVETVKGLDYKAFKQIVESCGNFKVTKGKAKKGAWNIGEQKSILSPLYAFASEAARVVRSIFSRTLETAQNSVRVLQKAAITILDGISQYSLRLIDAMMFTSDLATNNLVVMAYITGGVVQLTSQWLTNIFGTVYEKLKPVLDWLEEKFKEGVEFLRDGWEIVKFISTCACEIVGGQIVTCAKEIKESVQTFFKLVNKFLALCADSIIIGGAKLKALNLGETFVTHSKGLYRKCVKSREETGLLMPLKAPKEIIFLEGETLPTEVLTEEVVLKTGDLQPLEQPTSEAVEAPLVGTPVCINGLMLLEIKDTEKYCALAPNMMVTNNTFTLKGGAPTKVTFGDDTVIEVQGYKSVNITFELDERIDKVLNEKCSAYTVELGTEVNEFACVVADAVIKTLQPVSELLTPLGIDLDEWSMATYYLFDESGEFKLASHMYCSFYPPDEDEEEGDCEEEEFEPSTQYEYGTEDDYQGKPLEFGATSAALQPEEEQEEDWLDDDSQQTVGQQDGSEDNQTTTIQTIVEVQPQLEMELTPVVQTIEVNSFSGYLKLTDNVYIKNADIVEEAKKVKPTVVVNAANVYLKHGGGVAGALNKATNNAMQVESDDYIATNGPLKVGGSCVLSGHNLAKHCLHVVGPNVNKGEDIQLLKSAYENFNQHEVLLAPLLSAGIFGADPIHSLRVCVDTVRTNVYLAVFDKNLYDKLVSSFLEMKSEKQVEQKIAEIPKEEVKPFITESKPSVEQRKQDDKKIKACVEEVTTTLEETKFLTENLLLYIDINGNLHPDSATLVSDIDITFLKKDAPYIVGDVVQEGVLTAVVIPTKKAGGTTEMLAKALRKVPTDNYITTYPGQGLNGYTVEEAKTVLKKCKSAFYILPSIISNEKQEILGTVSWNLREMLAHAEETRKLMPVCVETKAIVSTIQRKYKGIKIQEGVVDYGARFYFYTSKTTVASLINTLNDLNETLVTMPLGYVTHGLNLEEAARYMRSLKVPATVSVSSPDAVTAYNGYLTSSSKTPEEHFIETISLAGSYKDWSYSGQSTQLGIEFLKRGDKSVYYTSNPTTFHLDGEVITFDNLKTLLSLREVRTIKVFTTVDNINLHTQVVDMSMTYGQQFGPTYLDGADVTKIKPHNSHEGKTFYVLPNDDTLRVEAFEYYHTTDPSFLGRYMSALNHTKKWKYPQVNGLTSIKWADNNCYLATALLTLQQIELKFNPPALQDAYYRARAGEAANFCALILAYCNKTVGELGDVRETMSYLFQHANLDSCKRVLNVVCKTCGQQQTTLKGVEAVMYMGTLSYEQFKKGVQIPCTCGKQATKYLVQQESPFVMMSAPPAQYELKHGTFTCASEYTGNYQCGHYKHITSKETLYCIDGALLTKSSEYKGPITDVFYKENSYTTTIKPVTYKLDGVVCTEIDPKLDNYYKKDNSYFTEQPIDLVPNQPYPNASFDNFKFVCDNIKFADDLNQLTGYKKPASRELKVTFFPDLNGDVVAIDYKHYTPSFKKGAKLLHKPIVWHVNNATNKATYKPNTWCIRCLWSTKPVETSNSFDVLKSEDAQGMDNLACEDLKPVSEEVVENPTIQKDVLECNVKTTEVVGDIILKPANNSLKITEEVGHTDLMAAYVDNSSLTIKKPNELSRVLGLKTLATHGLAAVNSVPWDTIANYAKPFLNKVVSTTTNIVTRCLNRVCTNYMPYFFTLLLQLCTFTRSTNSRIKASMPTTIAKNTVKSVGKFCLEASFNYLKSPNFSKLINIIIWFLLLSVCLGSLIYSTAALGVLMSNLGMPSYCTGYREGYLNSTNVTIATYCTGSIPCSVCLSGLDSLDTYPSLETIQITISSFKWDLTAFGLVAEWFLAYILFTRFFYVLGLAAIMQLFFSYFAVHFISNSWLMWLIINLVQMAPISAMVRMYIFFASFYYVWKSYVHVVDGCNSSTCMMCYKRNRATRVECTTIVNGVRRSFYVYANGGKGFCKLHNWNCVNCDTFCAGSTFISDEVARDLSLQFKRPINPTDQSSYIVDSVTVKNGSIHLYFDKAGQKTYERHSLSHFVNLDNLRANNTKGSLPINVIVFDGKSKCEESSAKSASVYYSQLMCQPILLLDQALVSDVGDSAEVAVKMFDAYVNTFSSTFNVPMEKLKTLVATAEAELAKNVSLDNVLSTFISAARQGFVDSDVETKDVVECLKLSHQSDIEVTGDSCNNYMLTYNKVENMTPRDLGACIDCSARHINAQVAKSHNIALIWNVKDFMSLSEQLRKQIRSAAKKNNLPFKLTCATTRQVVNVVTTKIALKGGKIVNNWLKQLIKVTLVFLFVAAIFYLITPVHVMSKHTDFSSEIIGYKAIDGGVTRDIASTDTCFANKHADFDTWFSQRGGSYTNDKACPLIAAVITREVGFVVPGLPGTILRTTNGDFLHFLPRVFSAVGNICYTPSKLIEYTDFATSACVLAAECTIFKDASGKPVPYCYDTNVLEGSVAYESLRPDTRYVLMDGSIIQFPNTYLEGSVRVVTTFDSEYCRHGTCERSEAGVCVSTSGRWVLNNDYYRSLPGVFCGVDAVNLLTNMFTPLIQPIGALDISASIVAGGIVAIVVTCLAYYFMRFRRAFGEYSHVVAFNTLLFLMSFTVLCLTPVYSFLPGVYSVIYLYLTFYLTNDVSFLAHIQWMVMFTPLVPFWITIAYIICISTKHFYWFFSNYLKRRVVFNGVSFSTFEEAALCTFLLNKEMYLKLRSDVLLPLTQYNRYLALYNKYKYFSGAMDTTSYREAACCHLAKALNDFSNSGSDVLYQPPQTSITSAVLQSGFRKMAFPSGKVEGCMVQVTCGTTTLNGLWLDDVVYCPRHVICTSEDMLNPNYEDLLIRKSNHNFLVQAGNVQLRVIGHSMQNCVLKLKVDTANPKTPKYKFVRIQPGQTFSVLACYNGSPSGVYQCAMRPNFTIKGSFLNGSCGSVGFNIDYDCVSFCYMHHMELPTGVHAGTDLEGNFYGPFVDRQTAQAAGTDTTITVNVLAWLYAAVINGDRWFLNRFTTTLNDFNLVAMKYNYEPLTQDHVDILGPLSAQTGIAVLDMCASLKELLQNGMNGRTILGSALLEDEFTPFDVVRQCSGVTFQSAVKRTIKGTHHWLLLTILTSLLVLVQSTQWSLFFFLYENAFLPFAMGIIAMSAFAMMFVKHKHAFLCLFLLPSLATVAYFNMVYMPASWVMRIMTWLDMVDTSLSGFKLKDCVMYASAVVLLILMTARTVYDDGARRVWTLMNVLTLVYKVYYGNALDQAISMWALIISVTSNYSGVVTTVMFLARGIVFMCVEYCPIFFITGNTLQCIMLVYCFLGYFCTCYFGLFCLLNRYFRLTLGVYDYLVSTQEFRYMNSQGLLPPKNSIDAFKLNIKLLGVGGKPCIKVATVQSKMSDVKCTSVVLLSVLQQLRVESSSKLWAQCVQLHNDILLAKDTTEAFEKMVSLLSVLLSMQGAVDINKLCEEMLDNRATLQAIASEFSSLPSYAAFATAQEAYEQAVANGDSEVVLKKLKKSLNVAKSEFDRDAAMQRKLEKMADQAMTQMYKQARSEDKRAKVTSAMQTMLFTMLRKLDNDALNNIINNARDGCVPLNIIPLTTAAKLMVVIPDYNTYKNTCDGTTFTYASALWEIQQVVDADSKIVQLSEISMDNSPNLAWPLIVTALRANSAVKLQNNELSPVALRQMSCAAGTTQTACTDDNALAYYNTTKGGRFVLALLSDLQDLKWARFPKSDGTGTIYTELEPPCRFVTDTPKGPKVKYLYFIKGLNNLNRGMVLGSLAATVRLQAGNATEVPANSTVLSFCAFAVDAAKAYKDYLASGGQPITNCVKMLCTHTGTGQAITVTPEANMDQESFGGASCCLYCRCHIDHPNPKGFCDLKGKYVQIPTTCANDPVGFTLKNTVCTVCGMWKGYGCSCDQLREPMLQSADAQSFLNRVCGVSAARLTPCGTGTSTDVVYRAFDIYNDKVAGFAKFLKTNCCRFQEKDEDDNLIDSYFVVKRHTFSNYQHEETIYNLLKDCPAVAKHDFFKFRIDGDMVPHISRQRLTKYTMADLVYALRHFDEGNCDTLKEILVTYNCCDDDYFNKKDWYDFVENPDILRVYANLGERVRQALLKTVQFCDAMRNAGIVGVLTLDNQDLNGNWYDFGDFIQTTPGSGVPVVDSYYSLLMPILTLTRALTAESHVDTDLTKPYIKWDLLKYDFTEERLKLFDRYFKYWDQTYHPNCVNCLDDRCILHCANFNVLFSTVFPPTSFGPLVRKIFVDGVPFVVSTGYHFRELGVVHNQDVNLHSSRLSFKELLVYAADPAMHAASGNLLLDKRTTCFSVAALTNNVAFQTVKPGNFNKDFYDFAVSKGFFKEGSSVELKHFFFAQDGNAAISDYDYYRYNLPTMCDIRQLLFVVEVVDKYFDCYDGGCINANQVIVNNLDKSAGFPFNKWGKARLYYDSMSYEDQDALFAYTKRNVIPTITQMNLKYAISAKNRARTVAGVSICSTMTNRQFHQKLLKSIAATRGATVVIGTSKFYGGWHNMLKTVYSDVENPHLMGWDYPKCDRAMPNMLRIMASLVLARKHTTCCSLSHRFYRLANECAQVLSEMVMCGGSLYVKPGGTSSGDATTAYANSVFNICQAVTANVNALLSTDGNKIADKYVRNLQHRLYECLYRNRDVDTDFVNEFYAYLRKHFSMMILSDDAVVCFNSTYASQGLVASIKNFKSVLYYQNNVFMSEAKCWTETDLTKGPHEFCSQHTMLVKQGDDYVYLPYPDPSRILGAGCFVDDIVKTDGTLMIERFVSLAIDAYPLTKHPNQEYADVFHLYLQYIRKLHDELTGHMLDMYSVMLTNDNTSRYWEPEFYEAMYTPHTVLQAVGACVLCNSQTSLRCGACIRRPFLCCKCCYDHVISTSHKLVLSVNPYVCNAPGCDVTDVTQLYLGGMSYYCKSHKPPISFPLCANGQVFGLYKNTCVGSDNVTDFNAIATCDWTNAGDYILANTCTERLKLFAAETLKATEETFKLSYGIATVREVLSDRELHLSWEVGKPRPPLNRNYVFTGYRVTKNSKVQIGEYTFEKGDYGDAVVYRGTTTYKLNVGDYFVLTSHTVMPLSAPTLVPQEHYVRITGLYPTLNISDEFSSNVANYQKVGMQKYSTLQGPPGTGKSHFAIGLALYYPSARIVYTACSHAAVDALCEKALKYLPIDKCSRIIPARARVECFDKFKVNSTLEQYVFCTVNALPETTADIVVFDEISMATNYDLSVVNARLRAKHYVYIGDPAQLPAPRTLLTKGTLEPEYFNSVCRLMKTIGPDMFLGTCRRCPAEIVDTVSALVYDNKLKAHKDKSAQCFKMFYKGVITHDVSSAINRPQIGVVREFLTRNPAWRKAVFISPYNSQNAVASKILGLPTQTVDSSQGSEYDYVIFTQTTETAHSCNVNRFNVAITRAKVGILCIMSDRDLYDKLQFTSLEIPRRNVATLQAENVTGLFKDCSKVITGLHPTQAPTHLSVDTKFKTEGLCVDIPGIPKDMTYRRLISMMGFKMNYQVNGYPNMFITREEAIRHVRAWIGFDVEGCHATREAVGTNLPLQLGFSTGVNLVAVPTGYVDTPNNTDFSRVSAKPPPGDQFKHLIPLMYKGLPWNVVRIKIVQMLSDTLKNLSDRVVFVLWAHGFELTSMKYFVKIGPERTCCLCDRRATCFSTASDTYACWHHSIGFDYVYNPFMIDVQQWGFTGNLQSNHDLYCQVHGNAHVASCDAIMTRCLAVHECFVKRVDWTIEYPIIGDELKINAACRKVQHMVVKAALLADKFPVLHDIGNPKAIKCVPQADVEWKFYDAQPCSDKAYKIEELFYSYATHSDKFTDGVCLFWNCNVDRYPANSIVCRFDTRVLSNLNLPGCDGGSLYVNKHAFHTPAFDKSAFVNLKQLPFFYYSDSPCESHGKQVVSDIDYVPLKSATCITRCNLGGAVCRHHANEYRLYLDAYNMMISAGFSLWVYKQFDTYNLWNTFTRLQSLENVAFNVVNKGHFDGQQGEVPVSIINNTVYTKVDGVDVELFENKTTLPVNVAFELWAKRNIKPVPEVKILNNLGVDIAANTVIWDYKRDAPAHISTIGVCSMTDIAKKPTETICAPLTVFFDGRVDGQVDLFRNARNGVLITEGSVKGLQPSVGPKQASLNGVTLIGEAVKTQFNYYKKVDGVVQQLPETYFTQSRNLQEFKPRSQMEIDFLELAMDEFIERYKLEGYAFEHIVYGDFSHSQLGGLHLLIGLAKRFKESPFELEDFIPMDSTVKNYFITDAQTGSSKCVCSVIDLLLDDFVEIIKSQDLSVVSKVVKVTIDYTEISFMLWCKDGHVETFYPKLQSSQAWQPGVAMPNLYKMQRMLLEKCDLQNYGDSATLPKGIMMNVAKYTQLCQYLNTLTLAVPYNMRVIHFGAGSDKGVAPGTAVLRQWLPTGTLLVDSDLNDFVSDADSTLIGDCATVHTANKWDLIISDMYDPKTKNVTKENDSKEGFFTYICGFIQQKLALGGSVAIKITEHSWNADLYKLMGHFAWWTAFVTNVNASSSEAFLIGCNYLGKPREQIDGYVMHANYIFWRNTNPIQLSSYSLFDMSKFPLKLRGTAVMSLKEGQINDMILSLLSKGRLIIRENNRVVISSDVLVNN,,1.0,3.0,0.0,0.95,,False,P0DTD1,141.1111111111111,-0.6744444444444446,1.1555555555555554,8.545189979486167,0.38111111111111107,0.0011111111111110875,-0.0855555555555556,-0.33444444444444454
ALCVQPHYITV,HLA-A02:01,0.9171,0,3,1.694,0.6459,,,,,,,,27198675,,ALQPHYITV,cedar,ALCVQPHYITV,,Negative,11,,,,,,,0.0,0.6005,0.6831,HLA-A02:11,,Negative,,,,,1.0,,,132.72727272727272,-0.7363636363636364,0.9727272727272728,7.355498301796615,0.32545454545454544,-0.07454545454545457,-0.2745454545454546,0.1990909090909091
ALDGTFQRK,HLA-A03:01,0.141,0,2,,,ALDGTFQRK,0.0,0.0,ALDGTFQRK,0.0,0.0,0.0,,HLA-A0301,,viral,,9590.0,,9,0.0,0.0,1.0,0.0,107.0,115.0,,,,,MNGGHIQLIIGPMFSGKSTELIRRVRRYQIAQYKCVTIKYSNDNRYGTGLWTHDKNNFEALEATKLCDVLESITDFSVIGIDEGQFFPDIVEFCERMANEGKIVIVAALDGTFQRKPFNNILNLIPLSEMVVKLTAVCMKCFKEASFSKRLGEETEIEIIGGNDMYQSVCRKCYIDS,,0.0,3.0,0.0,0.0,,True,P68564,54.44444444444444,2.9611111111111112,-0.9000000000000001,9.695024739019573,-0.25111111111111106,-0.16666666666666669,0.34333333333333327,-0.12666666666666668
ALDGYNGTV,HLA-A02:01,0.4218,0,7,0.1446,0.4989,,,,,,,,33257508,,ALDGYNGTV,cedar,ALDGYNGTV,,Negative,9,,,,,,,0.0,0.2477,0.4891,HLA-C05:01,,Negative,,,,,1.0,,,86.66666666666666,0.6022222222222223,-9.868649107779169e-17,3.7499869628809392,1.2335811384723961e-17,-0.7311111111111112,0.3588888888888888,-0.4644444444444445
ALDPHSGHF,HLA-B15:01,0.3632,0,7,0.0456,0.6295,,,,,,,,27198675,,ALDPHSGHF,cedar,ALDPHSGHF,,Negative,9,,,,,,,0.0,0.0277,0.9393,HLA-C05:01,,Negative,,,,,1.0,,,54.44444444444444,1.198888888888889,-0.47777777777777775,6.496504159178585,0.041111111111111126,-0.4333333333333333,0.2422222222222222,0.32111111111111107
ALDPHSGHFV,HLA-A02:01,0.0854,1,7,0.4235,0.6897,,,,,,,,"27198675,27198675,27198675,27198675,27198675,27198675,27198675,27198675,27198675,28678784,28678784,28678784,28678784",,ALDPHSHFV,cedar,ALDPHSGHFV,,Positive,10,,,,,,,0.7692307692307693,0.0854,0.8319,HLA-A02:01,,"Positive_all,Positive_all,Positive_all,Positive_all,Positive_all,Positive_all,Positive_all,Positive_all,Negative,Positive_all,Negative,Positive_all,Negative",,,,,13.0,,,78.0,0.675,-0.009999999999999964,6.496504159178585,0.11300000000000002,-0.4069999999999999,0.19399999999999998,0.286
ALDPHSGHFVA,HLA-A02:01,1.4716,0,7,0.4595,0.3308,,,,,,,,27198675,,APHSGHFVA,cedar,ALDPHSGHFVA,,Negative,11,,,,,,,0.0,0.2415,0.5599,HLA-B56:01,,Negative,,,,,1.0,,,80.0,0.4490909090909092,0.15454545454545457,6.496504159178585,0.11636363636363636,-0.49272727272727274,0.20909090909090908,0.21636363636363634
ALDQEAALAK,HLA-A11:01,0.8177,0,2,0.4288,0.5544,,,,,,,,31511069,,ALQEAALAK,cedar,ALDQEAALAK,,Negative,10,,,,,,,0.0,0.2056,0.6902,HLA-A03:02,,Negative,,,,,1.0,,,118.00000000000001,0.9540000000000001,0.039999999999999904,4.184407519642264,-0.11399999999999999,-0.41100000000000003,0.39699999999999996,-0.286
ALESIAWFSV,HLA-A02:01,1.768,0,2,0.5704,0.7856,,,,,,,,31511069,,ALESIAWSV,cedar,ALESIAWFSV,,Negative,10,,,,,,,0.0,1.2948,0.448,HLA-A02:11,,Negative,,,,,1.0,,,127.0,-0.9200000000000003,1.2899999999999998,3.849983240943402,0.41899999999999993,-0.15000000000000002,-0.23099999999999996,-0.255
ALFAGSMQL,HLA-A02:01,0.0169,0,7,0.0436,0.8598,,,,,,,,31511069,,ALFAGSMQL,cedar,ALFAGSMQL,,Negative,9,,,,,,,0.0,0.0094,0.9705,HLA-A02:02,,Negative,,,,,1.0,,,108.88888888888889,-1.198888888888889,1.2444444444444445,6.099999998230487,0.41333333333333333,-0.4566666666666667,-0.0155555555555556,-0.5244444444444445
ALFALLEIL,HLA-A02:01,0.3139,1,7,0.2798,0.7699,,,,,,,,"35193931,35193931,35193931,35193931,35193931,35193931",,ALFALLEIL,cedar,ALFALLEIL,,Positive,9,,,,,,,0.5,0.2482,0.6862,HLA-A02:02,,"Positive_all,Negative,Positive_all,Positive_all,Negative,Negative",,,,,6.0,,,238.88888888888889,-2.71,2.511111111111111,3.849983240943402,0.8166666666666668,0.011111111111111084,0.051111111111111114,-0.4166666666666667
ALFASRPRF,HLA-B15:01,0.1407,0,1,0.491,0.5873,,,,,,,,33479501,,ALFASRPRF,cedar,ALFASRPRF,,Negative,9,,,,,,,0.0,0.1407,0.7711,HLA-B15:01,,Negative,,,,,1.0,,,65.55555555555554,2.0822222222222226,0.17777777777777784,12.500109306536615,0.14555555555555552,0.05444444444444439,-0.010000000000000009,0.3722222222222222
ALFLVFGRTRK,HLA-A11:01,1.4748,1,8,0.1851,0.6456,,,,,,,,32226429,,ALFFGRTRK,cedar,ALFLVFGRTRK,,Positive,11,,,,,,,1.0,0.211,0.6975,HLA-A03:01,,Positive_all,,,,,1.0,,,106.36363636363635,1.3972727272727274,0.47272727272727266,12.51647814642638,0.18363636363636368,0.1018181818181818,0.27909090909090906,-0.1190909090909091
ALFNLIGTFPL,HLA-A02:01,0.5801,0,5,0.2151,0.8603,,,,,,,,31511069,,ALFNGTFPL,cedar,ALFNLIGTFPL,,Negative,11,,,,,,,0.0,0.524,0.7213,HLA-A02:11,,Negative,,,,,1.0,,,150.9090909090909,-1.7436363636363637,1.5545454545454547,6.099999998230487,0.6572727272727273,-0.19090909090909092,-0.04181818181818186,-0.09636363636363637
ALFTADSAQTK,HLA-A03:01,0.0764,0,2,0.4577,0.5471,,,,,,,,31511069,,ALFDSAQTK,cedar,ALFTADSAQTK,,Negative,11,,,,,,,0.0,0.051,0.8562,HLA-A03:02,,Negative,,,,,1.0,,,62.72727272727272,1.3654545454545455,-0.10000000000000009,6.3373671672306955,-0.11818181818181818,-0.4027272727272727,-0.0845454545454546,-0.09909090909090912
ALFTWTNL,HLA-A02:01,2.4013,0,5,3.07,0.5404,,,,,,,,24323902,,ALFTWT-NL,cedar,ALFTWTNL,,Negative,8,,,,,,,0.0,2.0316,0.2945,HLA-A02:11,,Negative,,,,,1.0,,,110.00000000000001,-0.6475000000000002,0.7999999999999998,6.099999998230487,0.5275,0.08124999999999998,-0.33375000000000005,-0.34875
ALFTWTNLL,HLA-A02:01,0.126,0,5,0.0602,0.9097,,,,,,,,24323902,,ALFTWTNLL,cedar,ALFTWTNLL,,Negative,9,,,,,,,0.0,0.0605,0.9662,HLA-A02:11,,Negative,,,,,1.0,,,141.1111111111111,-1.1222222222222225,1.1333333333333333,6.099999998230487,0.62,0.1122222222222222,-0.2877777777777778,-0.3788888888888889
ALFTWTNLLV,HLA-A02:01,0.7175,0,5,0.1817,0.8707,,,,,,,,24323902,,ALFTWTNLV,cedar,ALFTWTNLLV,,Negative,10,,,,,,,0.0,0.5303,0.7181,HLA-A02:11,,Negative,,,,,1.0,,,156.0,-1.4140000000000001,1.44,6.099999998230487,0.634,0.08399999999999998,-0.28300000000000003,-0.344
ALFTWTNLLVV,HLA-A02:01,1.262,0,5,0.6122,0.7786,,,,,,,,24323902,,ALFTWTNLV,cedar,ALFTWTNLLVV,,Negative,11,,,,,,,0.0,0.8509,0.5894,HLA-A02:11,,Negative,,,,,1.0,,,168.18181818181816,-1.6527272727272726,1.6909090909090907,6.099999998230487,0.6454545454545454,0.060909090909090885,-0.2790909090909091,-0.31545454545454543
ALGCSNNEK,HLA-A11:01,1.8499,0,7,0.5744,0.5194,,,,,,,,31511069,,ALGCSNNEK,cedar,ALGCSNNEK,,Negative,9,,,,,,,0.0,0.8459,0.3629,HLA-A03:02,,Negative,,,,,1.0,,,54.44444444444444,2.232222222222222,-0.8333333333333335,6.231833229307085,-0.38999999999999996,-0.5655555555555556,0.46666666666666656,-0.44111111111111106
ALGGVFMML,HLA-A02:01,0.2653,0,3,0.3252,0.834,,,,,,,,31511069,,ALGGVFMML,cedar,ALGGVFMML,,Negative,9,,,,,,,0.0,0.1755,0.9059,HLA-A02:11,,Negative,,,,,1.0,,,129.99999999999997,-2.8055555555555554,2.155555555555556,6.099999998230487,0.7522222222222222,-0.47111111111111104,0.1388888888888889,-0.6655555555555556
ALGYICKL,HLA-A02:01,3.241,0,4,5.0174,0.4369,,,,,,,,31511069,,AL-GYICKL,cedar,ALGYICKL,,Negative,8,,,,,,,0.0,3.1754,0.1716,HLA-A02:11,,Negative,,,,,1.0,,,158.75,-1.6375000000000002,1.35,8.522939047776163,0.445,-0.19375000000000003,0.17874999999999996,-0.47125
ALHGGWTTK,HLA-A03:01,0.0311,1,7,0.1356,0.6707,,,,,,,,"35484264,35484264,35484264,35484264,35484264,35484264,35484264,35484264,35484264,35484264,35484264,35484264,35484264,35484264,35484264,35484264,35484264,35484264,35484264,35484264,35484264,35484264,35484264,35484264,35484264,35484264,35484264,35484264,35484264,35484264,35484264,35484264,35484264,35484264,35484264,35484264,35484264,35484264,35484264,35484264,35484264,35484264",,ALHGGWTTK,cedar,ALHGGWTTK,,Positive,9,,,,,,,0.5952380952380952,0.0311,0.9244,HLA-A03:01,,"Positive_all,Positive_all,Negative,Negative,Negative,Negative,Negative,Negative,Positive_all,Positive_all,Positive_all,Positive_all,Positive_all,Positive_all,Positive_all,Positive_all,Positive_all,Positive_all,Negative,Negative,Negative,Negative,Negative,Positive_all,Positive_all,Negative,Negative,Positive_all,Positive_all,Positive_all,Positive_all,Positive_all,Negative,Negative,Positive_all,Positive_all,Negative,Positive_all,Positive_all,Negative,Positive_all,Positive_all",,,,,42.0,,,54.44444444444444,0.48999999999999994,-0.5111111111111112,9.702001779340208,0.036666666666666674,-0.4988888888888888,0.49222222222222217,-0.34111111111111114
ALHSPRCYR,HLA-A03:01,0.4339,0,0,0.0309,0.8166,,,,,,,,31511069,,ALHSPRCYR,cedar,ALHSPRCYR,,Negative,9,,,,,,,0.0,0.0511,0.8622,HLA-A31:01,,Negative,,,,,1.0,,,54.44444444444444,3.336666666666667,-0.8666666666666667,9.501216220669448,-0.1688888888888889,0.11111111111111109,0.06333333333333331,0.4633333333333333
ALHSSSSYH,HLA-A03:01,0.5429,0,8,0.9326,0.4584,,,,,,,,31511069,,ALHSSSSYH,cedar,ALHSSSSYH,,Negative,9,,,,,,,0.0,0.5429,0.4489,HLA-A03:01,,Negative,,,,,1.0,,,54.44444444444444,1.8144444444444443,-0.588888888888889,7.706063800491393,-0.1577777777777778,-0.37333333333333335,-0.13555555555555554,0.01333333333333332
ALHWEQVAV,HLA-A02:01,0.1636,0,3,0.2195,0.786,,,,,,,,31511069,,ALHWEQVAV,cedar,ALHWEQVAV,,Negative,9,,,,,,,0.0,0.0743,0.8224,HLA-A02:03,,Negative,,,,,1.0,,,129.99999999999997,-0.2155555555555556,0.5222222222222221,5.363507221918553,0.23444444444444448,-0.026666666666666675,0.10555555555555556,-0.24777777777777776
ALHWVAVR,HLA-A03:01,4.8813,0,1,3.156,0.3644,,,,,,,,31511069,,ALHWVAV-R,cedar,ALHWVAVR,,Negative,8,,,,,,,0.0,3.4495,0.0562,HLA-A31:01,,Negative,,,,,1.0,,,146.25,0.07874999999999988,0.8999999999999999,10.551758703775704,0.34750000000000003,0.09,0.19250000000000003,-0.12625000000000003
ALHWVAVRL,HLA-A02:01,0.4307,0,1,0.8078,0.6777,,,,,,,,31511069,,ALHWVAVRL,cedar,ALHWVAVRL,,Negative,9,,,,,,,0.0,0.2275,0.7079,HLA-A02:02,,Negative,,,,,1.0,,,173.33333333333331,-0.4766666666666668,1.2222222222222223,10.551758703775704,0.4600000000000001,0.12000000000000001,0.18000000000000005,-0.18111111111111114
ALIEAYVDI,HLA-A02:01,0.4445,0,6,0.2857,0.8427,,,,,,,,31511069,,ALIEAYVDI,cedar,ALIEAYVDI,,Negative,9,,,,,,,0.0,0.2615,0.8574,HLA-A02:11,,Negative,,,,,1.0,,,184.4444444444444,-0.75,1.3666666666666667,3.550073361489922,0.36000000000000004,-0.11666666666666667,0.024444444444444446,-0.20111111111111113
ALIHHNTYL,HLA-A02:01,0.0579,1,6,0.0837,0.8338,,,,,,,,"30418433,26945006,26945006,26945006,26945006,26945006,26945006,26945006,26389673,26389673,26389673,26389673",,ALIHHNTYL,cedar,ALIHHNTYL,,Positive,9,,,,,,,1.0,0.0274,0.944,HLA-A02:02,,"Positive_all,Positive_all,Positive_all,Positive_all,Positive_all,Positive_all,Positive_all,Positive_all,Positive_all,Positive_all,Positive_all,Positive_all",,,,,12.0,,,141.1111111111111,0.2333333333333335,0.2222222222222222,7.706063800491393,0.2844444444444445,0.0733333333333333,0.13333333333333336,-0.16444444444444445
ALLETPSLL,HLA-A02:01,0.0446,1,8,0.2699,0.8461,,,,,,,,27198675,,ALLETPSLL,cedar,ALLETPSLL,,Positive,9,,,,,,,1.0,0.0371,0.9778,HLA-A02:11,,Positive_all,,,,,1.0,,,184.44444444444443,-0.9677777777777778,1.1555555555555554,3.849983240943402,0.40222222222222226,-0.21444444444444452,-0.003333333333333344,0.12444444444444445
ALLETPSLLL,HLA-A02:01,0.1538,1,8,0.4578,0.6813,,,,,,,,"27198675,27198675,27198675,27198675",,ALLETPLLL,cedar,ALLETPSLLL,,Positive,10,,,,,,,0.5,0.1538,0.7401,HLA-A02:01,,"Negative,Positive_all,Negative,Positive_all",,,,,4.0,,,204.99999999999997,-1.363,1.42,3.849983240943402,0.49800000000000005,-0.15700000000000008,0.0049999999999999906,0.05000000000000001
ALLFLESEL,HLA-A02:01,0.4201,1,9,0.7512,0.6859,,,,,,,,"35193931,35193931,35193931,35193931,35193931,35193931,35193931,35193931",,ALLFLESEL,cedar,ALLFLESEL,,Positive,9,,,,,,,0.5,0.3899,0.5817,HLA-A02:02,,"Positive_all,Negative,Negative,Positive_all,Negative,Negative,Positive_all,Positive_all",,,,,8.0,,,184.44444444444443,-0.8277777777777781,1.3333333333333333,3.613691325765103,0.45333333333333337,0.019999999999999955,0.05888888888888888,-0.3344444444444445
ALLGSSCAPPL,HLA-A02:01,1.2142,0,9,0.9892,0.5868,,,,,,,,27198675,,ALLGSSPPL,cedar,ALLGSSCAPPL,,Negative,11,,,,,,,0.0,1.2142,0.1848,HLA-A02:01,,Negative,,,,,1.0,,,124.54545454545453,-1.2545454545454544,1.1181818181818182,5.922539790626615,0.3145454545454545,-0.7136363636363637,-0.027272727272727313,0.27181818181818185
ALLPTPHCESL,HLA-A02:01,0.1583,0,1,2.9658,0.4156,,,,,,,,31511069,,ALLPTPHSL,cedar,ALLPTPHCESL,,Negative,11,,,,,,,0.0,0.1583,0.7323,HLA-A02:01,,Negative,,,,,1.0,,,115.45454545454544,-0.03727272727272745,0.3909090909090908,5.36107725976035,0.20272727272727273,-0.26181818181818184,-0.0890909090909091,0.5236363636363636
ALLQEEAHV,HLA-A02:01,0.0828,0,7,0.7331,0.625,,,,,,,,27198675,,ALLQEEAHV,cedar,ALLQEEAHV,,Negative,9,,,,,,,0.0,0.0828,0.8361,HLA-A02:01,,Negative,,,,,1.0,,,141.1111111111111,0.7022222222222222,0.1888888888888888,4.25426907511428,0.0033333333333333856,-0.15555555555555556,0.3544444444444445,-0.21666666666666667
ALLQEEAHVPL,HLA-A02:01,0.8106,0,7,1.1153,0.5704,,,,,,,,27198675,,ALLQEEAHL,cedar,ALLQEEAHVPL,,Negative,11,,,,,,,0.0,0.8106,0.2836,HLA-A02:01,,Negative,,,,,1.0,,,150.90909090909088,0.12727272727272723,0.35454545454545444,4.25426907511428,0.14636363636363642,-0.14,0.28,0.09000000000000001
ALLQVTLLL,HLA-A02:01,0.0995,1,1,0.3452,0.7086,,,,,,,,"30418433,27198675",,ALLQVTLLL,cedar,ALLQVTLLL,,Positive,9,,,,,,,0.5,0.0995,0.8125,HLA-A02:01,,"Positive_all,Negative",,,,,2.0,,,259.99999999999994,-2.4822222222222226,2.3111111111111113,6.099999998230487,0.7122222222222223,-0.010000000000000021,-0.052222222222222225,-0.4033333333333333
ALMPLYACI,HLA-A02:02,0.667,0,9,,,ALMPLYACI,0.0,0.0,ALMPLYACI,0.0,0.0,0.0,,HLA-A0202,,viral,,17516.0,,9,0.0,0.0,1.0,0.0,652.0,660.0,,,,,MPLSYQHFRKLLLLDDEAGPLEEELPRLADEGLNRRVAEDLNLGNLNVSIPWTHKVGNFTGLYSSTVPVFNPDWKTPSFPHIHLQEDIINRCQQYVGPLTVNEKRRLKLIMPARFYPNLTKYLPLDKGIKPYYPEYAVNHYFKTRHYLHTLWKAGILYKRETTRSASFCGSPYSWEQELQHGRLVFQTSTRHGDESFCSQSSGILSRSPVGPCVRSQLKQSRLGLQPQQGSLARGKSGRSGSIWSRVHPTTRRPFGVEPSGSGHIDNTASSTSSCLHQSAVRKTAYSHLSTSKRQSSSGHAVELHNIPPSSARSQSEGPIFSCWWLQFRNSKPCSDYCLTHIVNLLEDWGPCTEHGEHNIRIPRTPARVTGGVFLVDKNPHNTTESRLVVDFSQFSRGSTHVSWPKFAVPNLQSLTNLLSSNLSWLSLDVSAAFYHIPLHPAAMPHLLVGSSGLPRYVARLSSTSRNINYQHGTMQNLHDSCSRNLYVSLLLLYKTFGRKLHLYSHPIILGFRKIPMGVGLSPFLLAQFTSAICSVVRRAFPHCLAFSYMDDVVLGAKSVQHLESLFTSITNFLLSLGIHLNPNKTKRWGYSLNFMGYVIGSWGTLPQEHIVQKLKQCFRKLPVNRPIDWKVCQRIVGLLGFAAPFTQCGYPALMPLYACIQSKQAFTFSPTYKAFLCKQYLNLYPVARQRSGLCQVFADATPTGWGLAIGHRRMRGTFVAPLPIHTAELLAACFARSRSGAKLIGTDNSVVLSRKYTSFPWLLGCAANWILRGTSFVYVPSALNPADDPSRGRLGLYRPLLHLPFRPTTGRTSLYAVSPSVPSHLPDRVHFASPLHVAWRPP,,0.0,1.0,0.0,0.0,,True,Q69028,152.22222222222223,-2.4299999999999997,1.911111111111111,5.919503211509436,0.7011111111111111,-0.11555555555555558,-0.32222222222222224,-0.017777777777777806
ALMPLYACI,HLA-A02:05,1.243,0,9,,,ALMPLYACI,0.0,0.0,ALMPLYACI,0.0,0.0,0.0,,HLA-A0205,,viral,,17517.0,,9,0.0,0.0,1.0,0.0,652.0,660.0,,,,,MPLSYQHFRKLLLLDDEAGPLEEELPRLADEGLNRRVAEDLNLGNLNVSIPWTHKVGNFTGLYSSTVPVFNPDWKTPSFPHIHLQEDIINRCQQYVGPLTVNEKRRLKLIMPARFYPNLTKYLPLDKGIKPYYPEYAVNHYFKTRHYLHTLWKAGILYKRETTRSASFCGSPYSWEQELQHGRLVFQTSTRHGDESFCSQSSGILSRSPVGPCVRSQLKQSRLGLQPQQGSLARGKSGRSGSIWSRVHPTTRRPFGVEPSGSGHIDNTASSTSSCLHQSAVRKTAYSHLSTSKRQSSSGHAVELHNIPPSSARSQSEGPIFSCWWLQFRNSKPCSDYCLTHIVNLLEDWGPCTEHGEHNIRIPRTPARVTGGVFLVDKNPHNTTESRLVVDFSQFSRGSTHVSWPKFAVPNLQSLTNLLSSNLSWLSLDVSAAFYHIPLHPAAMPHLLVGSSGLPRYVARLSSTSRNINYQHGTMQNLHDSCSRNLYVSLLLLYKTFGRKLHLYSHPIILGFRKIPMGVGLSPFLLAQFTSAICSVVRRAFPHCLAFSYMDDVVLGAKSVQHLESLFTSITNFLLSLGIHLNPNKTKRWGYSLNFMGYVIGSWGTLPQEHIVQKLKQCFRKLPVNRPIDWKVCQRIVGLLGFAAPFTQCGYPALMPLYACIQSKQAFTFSPTYKAFLCKQYLNLYPVARQRSGLCQVFADATPTGWGLAIGHRRMRGTFVAPLPIHTAELLAACFARSRSGAKLIGTDNSVVLSRKYTSFPWLLGCAANWILRGTSFVYVPSALNPADDPSRGRLGLYRPLLHLPFRPTTGRTSLYAVSPSVPSHLPDRVHFASPLHVAWRPP,,0.0,1.0,0.0,0.0,,True,Q69028,152.22222222222223,-2.4299999999999997,1.911111111111111,5.919503211509436,0.7011111111111111,-0.11555555555555558,-0.32222222222222224,-0.017777777777777806
ALNLGETFV,HLA-A02:01,0.366,0,1,,,ALNLGETFV,0.0,0.0,ALNLGETFV,0.0,0.0,0.0,,HLA-A0201,,viral,,25871.0,,9,0.0,0.0,1.0,0.0,701.0,709.0,,,,,MESLVPGFNEKTHVQLSLPVLQVRDVLVRGFGDSVEEVLSEARQHLKDGTCGLVEVEKGVLPQLEQPYVFIKRSDARTAPHGHVMVELVAELEGIQYGRSGETLGVLVPHVGEIPVAYRKVLLRKNGNKGAGGHSYGADLKSFDLGDELGTDPYEDFQENWNTKHSSGVTRELMRELNGGAYTRYVDNNFCGPDGYPLECIKDLLARAGKASCTLSEQLDFIDTKRGVYCCREHEHEIAWYTERSEKSYELQTPFEIKLAKKFDTFNGECPNFVFPLNSIIKTIQPRVEKKKLDGFMGRIRSVYPVASPNECNQMCLSTLMKCDHCGETSWQTGDFVKATCEFCGTENLTKEGATTCGYLPQNAVVKIYCPACHNSEVGPEHSLAEYHNESGLKTILRKGGRTIAFGGCVFSYVGCHNKCAYWVPRASANIGCNHTGVVGEGSEGLNDNLLEILQKEKVNINIVGDFKLNEEIAIILASFSASTSAFVETVKGLDYKAFKQIVESCGNFKVTKGKAKKGAWNIGEQKSILSPLYAFASEAARVVRSIFSRTLETAQNSVRVLQKAAITILDGISQYSLRLIDAMMFTSDLATNNLVVMAYITGGVVQLTSQWLTNIFGTVYEKLKPVLDWLEEKFKEGVEFLRDGWEIVKFISTCACEIVGGQIVTCAKEIKESVQTFFKLVNKFLALCADSIIIGGAKLKALNLGETFVTHSKGLYRKCVKSREETGLLMPLKAPKEIIFLEGETLPTEVLTEEVVLKTGDLQPLEQPTSEAVEAPLVGTPVCINGLMLLEIKDTEKYCALAPNMMVTNNTFTLKGGAPTKVTFGDDTVIEVQGYKSVNITFELDERIDKVLNEKCSAYTVELGTEVNEFACVVADAVIKTLQPVSELLTPLGIDLDEWSMATYYLFDESGEFKLASHMYCSFYPPDEDEEEGDCEEEEFEPSTQYEYGTEDDYQGKPLEFGATSAALQPEEEQEEDWLDDDSQQTVGQQDGSEDNQTTTIQTIVEVQPQLEMELTPVVQTIEVNSFSGYLKLTDNVYIKNADIVEEAKKVKPTVVVNAANVYLKHGGGVAGALNKATNNAMQVESDDYIATNGPLKVGGSCVLSGHNLAKHCLHVVGPNVNKGEDIQLLKSAYENFNQHEVLLAPLLSAGIFGADPIHSLRVCVDTVRTNVYLAVFDKNLYDKLVSSFLEMKSEKQVEQKIAEIPKEEVKPFITESKPSVEQRKQDDKKIKACVEEVTTTLEETKFLTENLLLYIDINGNLHPDSATLVSDIDITFLKKDAPYIVGDVVQEGVLTAVVIPTKKAGGTTEMLAKALRKVPTDNYITTYPGQGLNGYTVEEAKTVLKKCKSAFYILPSIISNEKQEILGTVSWNLREMLAHAEETRKLMPVCVETKAIVSTIQRKYKGIKIQEGVVDYGARFYFYTSKTTVASLINTLNDLNETLVTMPLGYVTHGLNLEEAARYMRSLKVPATVSVSSPDAVTAYNGYLTSSSKTPEEHFIETISLAGSYKDWSYSGQSTQLGIEFLKRGDKSVYYTSNPTTFHLDGEVITFDNLKTLLSLREVRTIKVFTTVDNINLHTQVVDMSMTYGQQFGPTYLDGADVTKIKPHNSHEGKTFYVLPNDDTLRVEAFEYYHTTDPSFLGRYMSALNHTKKWKYPQVNGLTSIKWADNNCYLATALLTLQQIELKFNPPALQDAYYRARAGEAANFCALILAYCNKTVGELGDVRETMSYLFQHANLDSCKRVLNVVCKTCGQQQTTLKGVEAVMYMGTLSYEQFKKGVQIPCTCGKQATKYLVQQESPFVMMSAPPAQYELKHGTFTCASEYTGNYQCGHYKHITSKETLYCIDGALLTKSSEYKGPITDVFYKENSYTTTIKPVTYKLDGVVCTEIDPKLDNYYKKDNSYFTEQPIDLVPNQPYPNASFDNFKFVCDNIKFADDLNQLTGYKKPASRELKVTFFPDLNGDVVAIDYKHYTPSFKKGAKLLHKPIVWHVNNATNKATYKPNTWCIRCLWSTKPVETSNSFDVLKSEDAQGMDNLACEDLKPVSEEVVENPTIQKDVLECNVKTTEVVGDIILKPANNSLKITEEVGHTDLMAAYVDNSSLTIKKPNELSRVLGLKTLATHGLAAVNSVPWDTIANYAKPFLNKVVSTTTNIVTRCLNRVCTNYMPYFFTLLLQLCTFTRSTNSRIKASMPTTIAKNTVKSVGKFCLEASFNYLKSPNFSKLINIIIWFLLLSVCLGSLIYSTAALGVLMSNLGMPSYCTGYREGYLNSTNVTIATYCTGSIPCSVCLSGLDSLDTYPSLETIQITISSFKWDLTAFGLVAEWFLAYILFTRFFYVLGLAAIMQLFFSYFAVHFISNSWLMWLIINLVQMAPISAMVRMYIFFASFYYVWKSYVHVVDGCNSSTCMMCYKRNRATRVECTTIVNGVRRSFYVYANGGKGFCKLHNWNCVNCDTFCAGSTFISDEVARDLSLQFKRPINPTDQSSYIVDSVTVKNGSIHLYFDKAGQKTYERHSLSHFVNLDNLRANNTKGSLPINVIVFDGKSKCEESSAKSASVYYSQLMCQPILLLDQALVSDVGDSAEVAVKMFDAYVNTFSSTFNVPMEKLKTLVATAEAELAKNVSLDNVLSTFISAARQGFVDSDVETKDVVECLKLSHQSDIEVTGDSCNNYMLTYNKVENMTPRDLGACIDCSARHINAQVAKSHNIALIWNVKDFMSLSEQLRKQIRSAAKKNNLPFKLTCATTRQVVNVVTTKIALKGGKIVNNWLKQLIKVTLVFLFVAAIFYLITPVHVMSKHTDFSSEIIGYKAIDGGVTRDIASTDTCFANKHADFDTWFSQRGGSYTNDKACPLIAAVITREVGFVVPGLPGTILRTTNGDFLHFLPRVFSAVGNICYTPSKLIEYTDFATSACVLAAECTIFKDASGKPVPYCYDTNVLEGSVAYESLRPDTRYVLMDGSIIQFPNTYLEGSVRVVTTFDSEYCRHGTCERSEAGVCVSTSGRWVLNNDYYRSLPGVFCGVDAVNLLTNMFTPLIQPIGALDISASIVAGGIVAIVVTCLAYYFMRFRRAFGEYSHVVAFNTLLFLMSFTVLCLTPVYSFLPGVYSVIYLYLTFYLTNDVSFLAHIQWMVMFTPLVPFWITIAYIICISTKHFYWFFSNYLKRRVVFNGVSFSTFEEAALCTFLLNKEMYLKLRSDVLLPLTQYNRYLALYNKYKYFSGAMDTTSYREAACCHLAKALNDFSNSGSDVLYQPPQTSITSAVLQSGFRKMAFPSGKVEGCMVQVTCGTTTLNGLWLDDVVYCPRHVICTSEDMLNPNYEDLLIRKSNHNFLVQAGNVQLRVIGHSMQNCVLKLKVDTANPKTPKYKFVRIQPGQTFSVLACYNGSPSGVYQCAMRPNFTIKGSFLNGSCGSVGFNIDYDCVSFCYMHHMELPTGVHAGTDLEGNFYGPFVDRQTAQAAGTDTTITVNVLAWLYAAVINGDRWFLNRFTTTLNDFNLVAMKYNYEPLTQDHVDILGPLSAQTGIAVLDMCASLKELLQNGMNGRTILGSALLEDEFTPFDVVRQCSGVTFQSAVKRTIKGTHHWLLLTILTSLLVLVQSTQWSLFFFLYENAFLPFAMGIIAMSAFAMMFVKHKHAFLCLFLLPSLATVAYFNMVYMPASWVMRIMTWLDMVDTSLSGFKLKDCVMYASAVVLLILMTARTVYDDGARRVWTLMNVLTLVYKVYYGNALDQAISMWALIISVTSNYSGVVTTVMFLARGIVFMCVEYCPIFFITGNTLQCIMLVYCFLGYFCTCYFGLFCLLNRYFRLTLGVYDYLVSTQEFRYMNSQGLLPPKNSIDAFKLNIKLLGVGGKPCIKVATVQSKMSDVKCTSVVLLSVLQQLRVESSSKLWAQCVQLHNDILLAKDTTEAFEKMVSLLSVLLSMQGAVDINKLCEEMLDNRATLQAIASEFSSLPSYAAFATAQEAYEQAVANGDSEVVLKKLKKSLNVAKSEFDRDAAMQRKLEKMADQAMTQMYKQARSEDKRAKVTSAMQTMLFTMLRKLDNDALNNIINNARDGCVPLNIIPLTTAAKLMVVIPDYNTYKNTCDGTTFTYASALWEIQQVVDADSKIVQLSEISMDNSPNLAWPLIVTALRANSAVKLQNNELSPVALRQMSCAAGTTQTACTDDNALAYYNTTKGGRFVLALLSDLQDLKWARFPKSDGTGTIYTELEPPCRFVTDTPKGPKVKYLYFIKGLNNLNRGMVLGSLAATVRLQAGNATEVPANSTVLSFCAFAVDAAKAYKDYLASGGQPITNCVKMLCTHTGTGQAITVTPEANMDQESFGGASCCLYCRCHIDHPNPKGFCDLKGKYVQIPTTCANDPVGFTLKNTVCTVCGMWKGYGCSCDQLREPMLQSADAQSFLNRVCGVSAARLTPCGTGTSTDVVYRAFDIYNDKVAGFAKFLKTNCCRFQEKDEDDNLIDSYFVVKRHTFSNYQHEETIYNLLKDCPAVAKHDFFKFRIDGDMVPHISRQRLTKYTMADLVYALRHFDEGNCDTLKEILVTYNCCDDDYFNKKDWYDFVENPDILRVYANLGERVRQALLKTVQFCDAMRNAGIVGVLTLDNQDLNGNWYDFGDFIQTTPGSGVPVVDSYYSLLMPILTLTRALTAESHVDTDLTKPYIKWDLLKYDFTEERLKLFDRYFKYWDQTYHPNCVNCLDDRCILHCANFNVLFSTVFPPTSFGPLVRKIFVDGVPFVVSTGYHFRELGVVHNQDVNLHSSRLSFKELLVYAADPAMHAASGNLLLDKRTTCFSVAALTNNVAFQTVKPGNFNKDFYDFAVSKGFFKEGSSVELKHFFFAQDGNAAISDYDYYRYNLPTMCDIRQLLFVVEVVDKYFDCYDGGCINANQVIVNNLDKSAGFPFNKWGKARLYYDSMSYEDQDALFAYTKRNVIPTITQMNLKYAISAKNRARTVAGVSICSTMTNRQFHQKLLKSIAATRGATVVIGTSKFYGGWHNMLKTVYSDVENPHLMGWDYPKCDRAMPNMLRIMASLVLARKHTTCCSLSHRFYRLANECAQVLSEMVMCGGSLYVKPGGTSSGDATTAYANSVFNICQAVTANVNALLSTDGNKIADKYVRNLQHRLYECLYRNRDVDTDFVNEFYAYLRKHFSMMILSDDAVVCFNSTYASQGLVASIKNFKSVLYYQNNVFMSEAKCWTETDLTKGPHEFCSQHTMLVKQGDDYVYLPYPDPSRILGAGCFVDDIVKTDGTLMIERFVSLAIDAYPLTKHPNQEYADVFHLYLQYIRKLHDELTGHMLDMYSVMLTNDNTSRYWEPEFYEAMYTPHTVLQAVGACVLCNSQTSLRCGACIRRPFLCCKCCYDHVISTSHKLVLSVNPYVCNAPGCDVTDVTQLYLGGMSYYCKSHKPPISFPLCANGQVFGLYKNTCVGSDNVTDFNAIATCDWTNAGDYILANTCTERLKLFAAETLKATEETFKLSYGIATVREVLSDRELHLSWEVGKPRPPLNRNYVFTGYRVTKNSKVQIGEYTFEKGDYGDAVVYRGTTTYKLNVGDYFVLTSHTVMPLSAPTLVPQEHYVRITGLYPTLNISDEFSSNVANYQKVGMQKYSTLQGPPGTGKSHFAIGLALYYPSARIVYTACSHAAVDALCEKALKYLPIDKCSRIIPARARVECFDKFKVNSTLEQYVFCTVNALPETTADIVVFDEISMATNYDLSVVNARLRAKHYVYIGDPAQLPAPRTLLTKGTLEPEYFNSVCRLMKTIGPDMFLGTCRRCPAEIVDTVSALVYDNKLKAHKDKSAQCFKMFYKGVITHDVSSAINRPQIGVVREFLTRNPAWRKAVFISPYNSQNAVASKILGLPTQTVDSSQGSEYDYVIFTQTTETAHSCNVNRFNVAITRAKVGILCIMSDRDLYDKLQFTSLEIPRRNVATLQAENVTGLFKDCSKVITGLHPTQAPTHLSVDTKFKTEGLCVDIPGIPKDMTYRRLISMMGFKMNYQVNGYPNMFITREEAIRHVRAWIGFDVEGCHATREAVGTNLPLQLGFSTGVNLVAVPTGYVDTPNNTDFSRVSAKPPPGDQFKHLIPLMYKGLPWNVVRIKIVQMLSDTLKNLSDRVVFVLWAHGFELTSMKYFVKIGPERTCCLCDRRATCFSTASDTYACWHHSIGFDYVYNPFMIDVQQWGFTGNLQSNHDLYCQVHGNAHVASCDAIMTRCLAVHECFVKRVDWTIEYPIIGDELKINAACRKVQHMVVKAALLADKFPVLHDIGNPKAIKCVPQADVEWKFYDAQPCSDKAYKIEELFYSYATHSDKFTDGVCLFWNCNVDRYPANSIVCRFDTRVLSNLNLPGCDGGSLYVNKHAFHTPAFDKSAFVNLKQLPFFYYSDSPCESHGKQVVSDIDYVPLKSATCITRCNLGGAVCRHHANEYRLYLDAYNMMISAGFSLWVYKQFDTYNLWNTFTRLQSLENVAFNVVNKGHFDGQQGEVPVSIINNTVYTKVDGVDVELFENKTTLPVNVAFELWAKRNIKPVPEVKILNNLGVDIAANTVIWDYKRDAPAHISTIGVCSMTDIAKKPTETICAPLTVFFDGRVDGQVDLFRNARNGVLITEGSVKGLQPSVGPKQASLNGVTLIGEAVKTQFNYYKKVDGVVQQLPETYFTQSRNLQEFKPRSQMEIDFLELAMDEFIERYKLEGYAFEHIVYGDFSHSQLGGLHLLIGLAKRFKESPFELEDFIPMDSTVKNYFITDAQTGSSKCVCSVIDLLLDDFVEIIKSQDLSVVSKVVKVTIDYTEISFMLWCKDGHVETFYPKLQSSQAWQPGVAMPNLYKMQRMLLEKCDLQNYGDSATLPKGIMMNVAKYTQLCQYLNTLTLAVPYNMRVIHFGAGSDKGVAPGTAVLRQWLPTGTLLVDSDLNDFVSDADSTLIGDCATVHTANKWDLIISDMYDPKTKNVTKENDSKEGFFTYICGFIQQKLALGGSVAIKITEHSWNADLYKLMGHFAWWTAFVTNVNASSSEAFLIGCNYLGKPREQIDGYVMHANYIFWRNTNPIQLSSYSLFDMSKFPLKLRGTAVMSLKEGQINDMILSLLSKGRLIIRENNRVVISSDVLVNN,,0.0,16.0,0.0,0.0,,False,P0DTD1,129.99999999999997,-0.39888888888888907,0.9222222222222223,3.849983240943402,0.27111111111111114,-0.3655555555555556,0.2011111111111111,-0.4088888888888889
ALNPTSGSL,HLA-B15:01,0.5782,0,8,0.9195,0.6591,,,,,,,,27198675,,ALNPTSGSL,cedar,ALNPTSGSL,,Negative,9,,,,,,,0.0,0.1622,0.6678,HLA-A02:03,,Negative,,,,,1.0,,,97.77777777777776,0.38,0.17777777777777773,6.099999998230487,0.024444444444444442,-0.7577777777777778,0.11111111111111105,0.034444444444444416
ALNSEALSV,HLA-A02:01,0.0813,1,6,0.1854,0.7954,,,,,,,,28954787,,ALNSEALSV,cedar,ALNSEALSV,,Positive,9,,,,,,,1.0,0.0392,0.89,HLA-A02:03,,Positive_all,,,,,1.0,,,141.1111111111111,0.30555555555555547,0.7555555555555555,3.849983240943402,0.02999999999999999,-0.5066666666666667,0.1111111111111111,-0.30999999999999994
ALNSEALSVV,HLA-A02:01,0.6443,1,6,0.0644,0.8501,,,,,,,,28954787,,ALNEALSVV,cedar,ALNSEALSVV,,Positive,10,,,,,,,1.0,0.1708,0.6576,HLA-A02:03,,Positive_all,,,,,1.0,,,156.0,-0.1290000000000001,1.1,3.849983240943402,0.10299999999999998,-0.47300000000000003,0.076,-0.2819999999999999
ALNSSEEYNL,HLA-A02:01,1.3575,0,2,1.0474,0.6491,,,,,,,,31511069,,ALNSSEEYL,cedar,ALNSSEEYNL,,Negative,10,,,,,,,0.0,0.5868,0.4779,HLA-A02:02,,Negative,,,,,1.0,,,88.0,2.219,-0.7500000000000001,3.6136910975910723,-0.22000000000000003,-0.21400000000000005,0.156,-0.358
ALNVVVVM,HLA-C12:03,8.1183,0,5,5.8787,0.2462,,,,,,,,"31351799,31351799",,ALN-VVVVM,cedar,ALNVVVVM,,Negative,8,,,,,,,0.0,3.0019,0.0604,HLA-B15:01,,"Negative,Negative",,,,,2.0,,,206.25,-2.325,2.6,6.099999998230487,0.57125,-0.20125000000000004,-0.08125000000000002,-0.3375
ALPILGEQV,HLA-A02:01,0.8351,0,7,0.9048,0.2467,,,,,,,,27198675,,ALPILGEQV,cedar,ALPILGEQV,,Negative,9,,,,,,,0.0,0.4739,0.1987,HLA-C01:02,,Negative,,,,,1.0,,,173.33333333333331,-1.0222222222222221,1.0111111111111113,3.849983240943402,0.30888888888888894,-0.37222222222222223,0.2944444444444444,-0.0055555555555555575
ALPQHLIRV,HLA-A02:01,0.0267,1,1,0.0703,0.8479,,,,,,,,"34696226,34696226,34696226,34696226",,ALPQHLIRV,cedar,ALPQHLIRV,,Positive,9,,,,,,,1.0,0.0052,0.9759,HLA-A02:03,,"Positive_all,Positive_all,Positive_all,Positive_all",,,,,4.0,,,173.33333333333331,0.5011111111111112,0.5888888888888889,10.551758703775704,0.2511111111111111,0.08777777777777777,0.2177777777777778,0.3055555555555556
ALQDSGLEV,HLA-A02:01,0.088,0,0,,,ALQDSGLEV,0.0,0.0,ALQDSGLEV,0.0,0.0,0.0,,HLA-A0201,,viral,,196.0,,9,0.0,0.0,1.0,0.0,1073.0,1081.0,,,,,MGARASVLSGGELDKWEKIRLRPGGKKKYKLKHIVWASRELERFAVNPGLLETSEGCRQILGQLQPSLQTGSEELRSLYNTVATLYCVHQRIDVKDTKEALEKIEEEQNKSKKKAQQAAAAAGTGNSSQVSQNYPIVQNLQGQMVHQAISPRTLNAWVKVVEEKAFSPEVIPMFSALSEGATPQDLNTMLNTVGGHQAAMQMLKETINEEAAEWDRVHPVHAGPIAPGQMREPRGSDIAGTTSTLQEQIGWMTNNPPIPVGEIYKRWIILGLNKIVRMYSPTSILDIRQGPKEPFRDYVDRFYKTLRAEQASQDVKNWMTETLLVQNANPDCKTILKALGPAATLEEMMTACQGVGGPGHKARVLAEAMSQVTNPANIMMQRGNFRNQRKTVKCFNCGKEGHIAKNCRAPRKKGCWRCGREGHQMKDCTERQANFLREDLAFLQGKAREFSSEQTRANSPTRRELQVWGGENNSLSEAGADRQGTVSFNFPQITLWQRPLVTIRIGGQLKEALLDTGADDTVLEEMNLPGKWKPKMIGGIGGFIKVRQYDQIPVEICGHKAIGTVLVGPTPVNIIGRNLLTQIGCTLNFPISPIETVPVKLKPGMDGPKVKQWPLTEEKIKALVEICTEMEKEGKISKIGPENPYNTPVFAIKKKDSTKWRKLVDFRELNKRTQDFWEVQLGIPHPAGLKKKKSVTVLDVGDAYFSVPLDKDFRKYTAFTIPSINNETPGIRYQYNVLPQGWKGSPAIFQSSMTKILEPFRKQNPDIVIYQYMDDLYVGSDLEIGQHRTKIEELRQHLLRWGFTTPDKKHQKEPPFLWMGYELHPDKWTVQPIMLPEKDSWTVNDIQKLVGKLNWASQIYAGIKVKQLCKLLRGTKALTEVIPLTEEAELELAENREILKEPVHEVYYDPSKDLVAEIQKQGQGQWTYQIYQEPFKNLKTGKYARMRGAHTNDVKQLTEAVQKVSTESIVIWGKIPKFKLPIQKETWEAWWMEYWQATWIPEWEFVNTPPLVKLWYQLEKEPIVGAETFYVDGAANRETKLGKAGYVTDRGRQKVVSIADTTNQKTELQAIHLALQDSGLEVNIVTDSQYALGIIQAQPDKSESELVSQIIEQLIKKEKVYLAWVPAHKGIGGNEQVDKLVSAGIRKVLFLNGIDKAQEEHEKYHSNWRAMASDFNLPPVVAKEIVASCDKCQLKGEAMHGQVDCSPGIWQLDCTHLEGKIILVAVHVASGYIEAEVIPAETGQETAYFLLKLAGRWPVKTIHTDNGSNFTSTTVKAACWWAGIKQEFGIPYNPQSQGVVESMNNELKKIIGQVRDQAEHLKTAVQMAVFIHNFKRKGGIGGYSAGERIVDIIATDIQTKELQKQITKIQNFRVYYRDNKDPLWKGPAKLLWKGEGAVVIQDNSDIKVVPRRKAKIIRDYGKQMAGDDCVASRQDED,,0.0,0.0,0.0,0.0,,True,P03369,129.99999999999997,0.8711111111111112,0.21111111111111105,3.5500735570676625,-0.058888888888888866,-0.5144444444444445,0.26555555555555554,-0.31222222222222223
ALQEQWLQAV,HLA-A02:01,0.157,0,5,0.1273,0.8866,,,,,,,,31511069,,ALQEWLQAV,cedar,ALQEQWLQAV,,Negative,10,,,,,,,0.0,0.0905,0.9481,HLA-A02:11,,Negative,,,,,1.0,,,127.0,0.3599999999999999,0.04999999999999991,3.849983240943402,0.12200000000000007,0.02799999999999997,-0.006000000000000017,-0.429
ALQHFELENSL,HLA-A02:01,0.3415,0,7,0.4065,0.323,,,,,,,,27198675,,AHFELENSL,cedar,ALQHFELENSL,,Negative,11,,,,,,,0.0,0.1215,0.6816,HLA-B38:01,,Negative,,,,,1.0,,,115.45454545454544,1.3009090909090906,-0.1818181818181819,4.25426907511428,0.030909090909090955,0.0,0.17363636363636362,-0.26818181818181824
ALQKVKIAV,HLA-A02:01,0.2371,0,7,0.5836,0.7834,,,,,,,,35193931,,ALQKVKIAV,cedar,ALQKVKIAV,,Negative,9,,,,,,,0.0,0.12,0.9325,HLA-A02:11,,Negative,,,,,1.0,,,173.33333333333331,-0.5444444444444446,1.0,10.805379563011229,0.1277777777777778,-0.08888888888888893,0.35777777777777775,-0.21333333333333335
ALQNFDNKLV,HLA-A02:01,1.9894,0,1,1.5584,0.1942,,,,,,,,31511069,,AQNFDNKLV,cedar,ALQNFDNKLV,,Negative,10,,,,,,,0.0,1.6529,0.1619,HLA-B13:02,,Negative,,,,,1.0,,,117.0,1.4420000000000002,-0.1500000000000002,6.3373671672306955,-0.010999999999999987,-0.011000000000000018,0.187,-0.327
ALQNYYNKLV,HLA-A02:01,3.8972,0,4,1.4882,0.667,,,,,,,,31511069,,ALQNYYNKV,cedar,ALQNYYNKLV,,Negative,10,,,,,,,0.0,2.2824,0.2612,HLA-A02:11,,Negative,,,,,1.0,,,117.0,0.8959999999999997,-0.34,9.145600226707757,0.074,0.16799999999999998,0.125,-0.46699999999999997
ALQQCLQGA,HLA-A02:01,1.2079,0,9,1.0933,0.6399,,,,,,,,31511069,,ALQQCLQGA,cedar,ALQQCLQGA,,Negative,9,,,,,,,0.0,0.9654,0.2407,HLA-A02:03,,Negative,,,,,1.0,,,108.88888888888889,0.10444444444444434,0.3111111111111111,5.922539790626615,0.013333333333333355,-0.5033333333333333,0.07555555555555553,-0.5511111111111112
ALQSAYVKI,HLA-A02:01,0.5806,0,9,0.6541,0.2526,,,,,,,,31511069,,ALQSAYVKI,cedar,ALQSAYVKI,,Negative,9,,,,,,,0.0,0.1577,0.619,HLA-B13:02,,Negative,,,,,1.0,,,141.1111111111111,-0.318888888888889,0.7333333333333333,9.298300650902092,0.16666666666666669,-0.13666666666666674,0.02555555555555554,-0.27
ALQSQSISL,HLA-A02:01,0.1036,0,2,0.6934,0.6944,,,,,,,,33479501,,ALQSQSISL,cedar,ALQSQSISL,,Negative,9,,,,,,,0.0,0.0646,0.8851,HLA-A02:02,,Negative,,,,,1.0,,,141.1111111111111,0.5233333333333332,0.5,6.099999998230487,0.02333333333333338,-0.3533333333333334,-0.21777777777777776,-0.26
ALQSQSISLV,HLA-A02:01,0.6938,0,2,0.3908,0.2869,,,,,,,,33479501,,AQSQSISLV,cedar,ALQSQSISLV,,Negative,10,,,,,,,0.0,0.3174,0.4774,HLA-B13:02,,Negative,,,,,1.0,,,156.0,0.0669999999999999,0.8699999999999999,6.099999998230487,0.09700000000000004,-0.3350000000000001,-0.22000000000000003,-0.23700000000000002
ALRMLEVPL,HLA-B07:02,1.6978,0,3,0.491,0.4517,,,,,,,,27198675,,ALRMLEVPL,cedar,ALRMLEVPL,,Negative,9,,,,,,,0.0,1.1415,0.1448,HLA-B08:01,,Negative,,,,,1.0,,,173.33333333333331,-0.13666666666666671,1.0777777777777777,6.410149741452187,0.3966666666666667,0.09222222222222219,0.16888888888888892,0.15111111111111108
ALRMLEVPL,HLA-A02:01,2.508,0,3,0.491,0.4517,,,,,,,,27198675,,ALRMLEVPL,cedar,ALRMLEVPL,,Negative,9,,,,,,,0.0,1.1415,0.1448,HLA-B08:01,,Negative,,,,,1.0,,,173.33333333333331,-0.13666666666666671,1.0777777777777777,6.410149741452187,0.3966666666666667,0.09222222222222219,0.16888888888888892,0.15111111111111108
ALSDQVRDV,HLA-A02:01,0.2608,0,8,0.312,0.7629,,,,,,,,31511069,,ALSDQVRDV,cedar,ALSDQVRDV,,Negative,9,,,,,,,0.0,0.0401,0.8878,HLA-A02:03,,Negative,,,,,1.0,,,118.88888888888889,2.9433333333333334,-0.19999999999999998,4.109250931534916,-0.26333333333333336,-0.2,0.05333333333333336,0.054444444444444455
ALSIGTSYRY,HLA-B15:01,0.4303,0,2,0.0789,0.6716,,,,,,,,27198675,,ASIGTSYRY,cedar,ALSIGTSYRY,,Negative,10,,,,,,,0.0,0.1108,0.6743,HLA-A30:02,,Negative,,,,,1.0,,,88.0,1.198,0.030000000000000047,9.171628129668534,0.06499999999999997,-0.24299999999999997,-0.040000000000000036,-0.21700000000000003
ALSPDGSIRK,HLA-A03:01,0.0542,0,7,0.2028,0.6227,,,,,,,,33479501,,ALSPGSIRK,cedar,ALSPDGSIRK,,Negative,10,,,,,,,0.0,0.0398,0.8746,HLA-A03:02,,Negative,,,,,1.0,,,88.0,2.3400000000000003,-0.54,9.695024739019573,-0.23299999999999996,-0.44299999999999995,0.37799999999999995,0.27299999999999996
ALSPGLTRT,HLA-A02:01,0.8592,0,0,1.1971,0.6272,,,,,,,,33479501,,ALSPGLTRT,cedar,ALSPGLTRT,,Negative,9,,,,,,,0.0,0.1931,0.6334,HLA-A02:03,,Negative,,,,,1.0,,,97.77777777777776,1.2077777777777776,0.07777777777777767,10.550002220086753,0.0077777777777777906,-0.5211111111111112,0.1577777777777777,0.24666666666666665
ALSPSALSPA,HLA-A02:01,2.1319,0,5,0.2427,0.7796,,,,,,,,31511069,,ALSPSLSPA,cedar,ALSPSALSPA,,Negative,10,,,,,,,0.0,0.9039,0.2558,HLA-A02:03,,Negative,,,,,1.0,,,108.0,-0.507,0.74,6.099999998230487,0.15999999999999998,-0.7539999999999999,-0.10600000000000001,0.477
ALSPVIPHI,HLA-A02:01,0.0077,1,5,0.0829,0.8412,,,,,,,,"30418433,27198675,27198675,27198675,27198675,27198675,27198675,27198675",,ALSPVIPHI,cedar,ALSPVIPHI,,Positive,9,,,,,,,0.625,0.0029,0.9868,HLA-A02:03,,"Positive_all,Positive_all,Positive_all,Positive_all,Positive_all,Negative,Negative,Negative",,,,,8.0,,,173.33333333333331,-1.3944444444444446,1.2888888888888888,7.550323993898928,0.46111111111111114,-0.2511111111111111,-0.023333333333333345,0.721111111111111
ALSVEFSEM,HLA-B15:01,1.0351,0,7,1.3141,0.6184,,,,,,,,27198675,,ALSVEFSEM,cedar,ALSVEFSEM,,Negative,9,,,,,,,0.0,0.6642,0.4399,HLA-A02:02,,Negative,,,,,1.0,,,86.66666666666666,0.4799999999999998,0.6555555555555556,3.613691325765103,0.12222222222222223,-0.19000000000000003,-0.16111111111111112,-0.19444444444444445
ALSYLVSFQR,HLA-A11:02,0.8641,1,9,0.3094,0.6732,,,,,,,,"32582212,32582212",,ASYLVSFQR,cedar,ALSYLVSFQR,,Positive,10,,,,,,,1.0,0.4722,0.497,HLA-A31:01,,"Positive_all,Positive_all",,,,,2.0,,,117.0,0.873,0.55,9.348807885311544,0.199,0.060999999999999964,-0.21900000000000003,-0.183
ALSYTPAEV,HLA-A02:01,0.1425,1,3,0.119,0.8222,,,,,,,,30418433,,ALSYTPAEV,cedar,ALSYTPAEV,,Positive,9,,,,,,,1.0,0.0549,0.8565,HLA-A02:03,,Positive_all,,,,,1.0,,,97.77777777777776,0.037777777777777764,0.4111111111111111,3.8499827128835022,0.11777777777777776,-0.3733333333333333,-0.12333333333333335,0.21666666666666667
ALTASTVPL,HLA-A02:01,0.6482,0,2,0.2368,0.7801,,,,,,,,24323902,,ALTASTVPL,cedar,ALTASTVPL,,Negative,9,,,,,,,0.0,0.4003,0.5737,HLA-A02:02,,Negative,,,,,1.0,,,141.1111111111111,-0.9955555555555556,1.2888888888888888,6.099999998230487,0.2944444444444445,-0.5355555555555555,-0.19666666666666666,0.2466666666666667
ALVNKLYSL,HLA-A02:01,0.0271,0,2,0.0809,0.8351,,,,,,,,31511069,,ALVNKLYSL,cedar,ALVNKLYSL,,Negative,9,,,,,,,0.0,0.0188,0.9545,HLA-A02:02,,Negative,,,,,1.0,,,173.33333333333331,-0.5422222222222223,0.8777777777777778,9.298300650902092,0.3077777777777778,-0.001111111111111149,0.12444444444444443,-0.38333333333333336
ALVRGVCMKV,HLA-A02:01,1.2789,0,1,0.3971,0.7415,,,,,,,,31511069,,ALVRGVMKV,cedar,ALVRGVCMKV,,Negative,10,,,,,,,0.0,0.5228,0.3831,HLA-A02:03,,Negative,,,,,1.0,,,136.0,-0.2950000000000001,1.3800000000000001,9.833242292515934,0.21399999999999997,-0.22199999999999998,0.21899999999999994,-0.24400000000000005
ALVVPVFEI,HLA-A02:02,0.6635,0,6,0.3288,0.8332,,,,,,,,33479501,,ALVVPVFEI,cedar,ALVVPVFEI,,Negative,9,,,,,,,0.0,0.221,0.8832,HLA-A02:11,,Negative,,,,,1.0,,,194.44444444444443,-2.2155555555555555,2.2666666666666666,3.849983240943402,0.6244444444444446,-0.07111111111111112,-0.11666666666666667,0.2288888888888889
ALWDRVVDL,HLA-A02:01,0.0165,1,7,0.1276,0.7884,,,,,,,,"31921104,31921104",,ALWDRVVDL,cedar,ALWDRVVDL,,Positive,9,,,,,,,1.0,0.0165,0.9647,HLA-A02:01,,"Positive_all,Positive_all",,,,,2.0,,,162.22222222222223,1.1444444444444444,0.6,4.109250931534916,0.23555555555555557,0.1377777777777778,0.04333333333333334,-0.07555555555555556
ALWSLSRHASL,HLA-A02:01,0.9784,0,7,1.1746,0.7011,,,,,,,,31511069,,ALWSLSASL,cedar,ALWSLSRHASL,,Negative,11,,,,,,,0.0,0.83,0.5967,HLA-A02:11,,Negative,,,,,1.0,,,124.54545454545453,0.8245454545454544,0.36363636363636354,10.551758703775704,0.17909090909090908,-0.13000000000000006,0.023636363636363632,-0.16909090909090907
ALYGFVPVL,HLA-A02:01,0.0216,1,2,0.0572,0.9116,,,,,,,,"30418433,30418433,26389673,26389673,26389673,26389673",,ALYGFVPVL,cedar,ALYGFVPVL,,Positive,9,,,,,,,1.0,0.016,0.9896,HLA-A02:11,,"Positive_all,Positive_all,Positive_all,Positive_all,Positive_all,Positive_all",,,,,6.0,,,162.22222222222223,-2.612222222222222,1.9222222222222223,6.093198032584041,0.7266666666666667,-0.2188888888888889,-0.0477777777777778,-0.031111111111111076
ALYLLSKSFRK,HLA-A11:01,0.8302,0,4,0.0716,0.7118,,,,,,,,27198675,,ALYSKSFRK,cedar,ALYLLSKSFRK,,Negative,11,,,,,,,0.0,0.063,0.8746,HLA-A03:01,,Negative,,,,,1.0,,,115.45454545454544,1.2190909090909088,0.07272727272727267,10.901809546165168,0.11000000000000008,0.21454545454545448,0.1445454545454545,-0.15909090909090914
AMAGSLVFL,HLA-A24:02,4.1874,0,5,0.0247,0.8813,,,,,,,,27198675,,AMAGSLVFL,cedar,AMAGSLVFL,,Negative,9,,,,,,,0.0,0.0369,0.9269,HLA-A02:02,,Negative,,,,,1.0,,,141.1111111111111,-2.263333333333333,2.0999999999999996,6.099999998230487,0.6044444444444445,-0.4955555555555555,-0.020000000000000025,-0.48222222222222233
AMAGSLVFL,HLA-A02:01,0.0845,1,5,0.0247,0.8813,,,,,,,,"30418433,27198675",,AMAGSLVFL,cedar,AMAGSLVFL,,Positive,9,,,,,,,0.5,0.0369,0.9269,HLA-A02:02,,"Positive_all,Negative",,,,,2.0,,,141.1111111111111,-2.263333333333333,2.0999999999999996,6.099999998230487,0.6044444444444445,-0.4955555555555555,-0.020000000000000025,-0.48222222222222233
AMAGSLVFL,HLA-B07:02,6.2205,0,5,0.0247,0.8813,,,,,,,,27198675,,AMAGSLVFL,cedar,AMAGSLVFL,,Negative,9,,,,,,,0.0,0.0369,0.9269,HLA-A02:02,,Negative,,,,,1.0,,,141.1111111111111,-2.263333333333333,2.0999999999999996,6.099999998230487,0.6044444444444445,-0.4955555555555555,-0.020000000000000025,-0.48222222222222233
AMAVLYLAL,HLA-A02:01,1.9184,0,9,0.4049,0.7439,,,,,,,,"31655052,31655052",,AMAVLYLAL,cedar,AMAVLYLAL,,Negative,9,,,,,,,0.0,1.1093,0.2988,HLA-A02:02,,"Negative,Negative",,,,,2.0,,,195.55555555555551,-2.9377777777777783,2.4,6.093198032584041,0.7677777777777779,-0.1711111111111112,-0.08222222222222224,-0.5033333333333334
AMFWSVPTV,HLA-A02:01,0.0477,1,7,0.0139,0.9446,,,,,,,,"25837513,25837513,25837513,25837513,25837513,25837513,25837513,31685621,31685621",,AMFWSVPTV,cedar,AMFWSVPTV,,Positive,9,,,,,,,0.8888888888888888,0.0289,0.9848,HLA-A02:11,,"Negative,Positive_all,Positive_all,Positive_all,Positive_all,Positive_all,Positive_all,Positive_all,Positive_all",,,,,9.0,,,75.55555555555556,-1.2866666666666668,1.2111111111111112,6.099999998230487,0.5455555555555555,-0.07000000000000002,-0.5488888888888889,0.19888888888888892
AMHGRKIMGK,HLA-A03:01,0.1097,0,8,0.0569,0.7235,,,,,,,,31511069,,AMHGKIMGK,cedar,AMHGRKIMGK,,Negative,10,,,,,,,0.0,0.1097,0.8146,HLA-A03:01,,Negative,,,,,1.0,,,49.0,1.737,-0.6199999999999999,11.823062091134489,-0.11999999999999995,-0.24399999999999994,0.7989999999999999,-0.29100000000000004
AMHNQLTDMEK,HLA-A03:01,0.4073,0,3,0.4375,0.5576,,,,,,,,31511069,,AMHNQLMEK,cedar,AMHNQLTDMEK,,Negative,11,,,,,,,0.0,0.4073,0.5251,HLA-A03:01,,Negative,,,,,1.0,,,44.54545454545455,2.6418181818181816,-1.1272727272727272,5.454297225456685,-0.2445454545454545,-0.01000000000000002,0.1781818181818182,-0.1745454545454546
AMLSKVVIL,HLA-A02:01,0.099,0,6,0.5509,0.6591,,,,,,,,33479501,,AMLSKVVIL,cedar,AMLSKVVIL,,Negative,9,,,,,,,0.0,0.099,0.8131,HLA-A02:01,,Negative,,,,,1.0,,,205.55555555555554,-2.0055555555555555,2.1666666666666665,9.700002531521022,0.5366666666666667,-0.06777777777777783,0.001111111111111092,-0.2611111111111111
AMPFSIFYPM,HLA-A02:01,5.7665,1,5,0.4401,0.5261,,,,,,,,"33257508,33257508,33257508",,APFSIFYPM,cedar,AMPFSIFYPM,,Positive,10,,,,,,,0.6666666666666666,1.4486,0.1008,HLA-B07:02,,"Positive_all,Positive_all,Negative",,,,,3.0,,,49.0,-1.385,1.0400000000000003,6.093198032584041,0.6859999999999999,0.08299999999999996,-0.616,0.434
AMQCLQNENL,HLA-A02:01,6.429,0,5,1.7608,0.5792,,,,,,,,31511069,,AMQLQNENL,cedar,AMQCLQNENL,,Negative,10,,,,,,,0.0,3.513,0.0728,HLA-A02:02,,Negative,,,,,1.0,,,88.0,1.589,-0.37,3.849962144624442,-0.10199999999999998,-0.09400000000000003,0.001999999999999995,-0.499
AMQKRRLHLSV,HLA-A02:01,7.6554,0,7,0.5203,0.4459,,,,,,,,31511069,,AMQKRHLSV,cedar,AMQKRRLHLSV,,Negative,11,,,,,,,0.0,4.3991,0.0263,HLA-B08:01,,Negative,,,,,1.0,,,106.36363636363635,2.813636363636363,-0.44545454545454555,12.516478954814374,-0.13909090909090904,0.2081818181818182,0.34,-0.026363636363636388
AMRKYSPFR,HLA-A33:01,0.923,1,7,,,AMRKYSPFR,0.0,0.0,AMRKYSPFR,0.0,0.0,0.0,,HLA-A3301,,viral,,19832.0,,9,0.0,0.0,0.0,1.0,107.0,115.0,,,,,MAHFPGFGQSLLFGYPVYVFGDCVQGDWCPISGGLCSARLHRHALLATCPEHQITWDPIDGRVIGSALQFLIPRLPSFPTQRTSKTLKVLTPPITHTTPNIPPSFLQAMRKYSPFRNGYMEPTLGQHLPTLSFPDPGLRPQNLYTLWGGSVVCMYLYQLSPPITWPLLPHVIFCHPGQLGAFLTNVPYKRIEELLYKISLTTGALIILPEDCLPTTLFQPARAPVTLTAWQNGLLPFHSTLTTPGLIWTFTDGTPMISGPCPKDGQPSLVLQSSSFIFHKFQTKAYHPSFLLSHGLIQYSSFHSLHLLFEEYTNIPISLLFNEKEADDNDHEPQISPGGLEPPSEKHFRETEV,,0.0,0.0,0.0,0.95,,True,P03409,11.11111111111111,3.532222222222222,-1.1222222222222225,11.530520518310368,-0.14111111111111108,0.31333333333333324,0.06777777777777774,0.39777777777777773
AMRLWVIRV,HLA-A02:01,2.0168,0,5,1.1263,0.636,,,,,,,,27198675,,AMRLWVIRV,cedar,AMRLWVIRV,,Negative,9,,,,,,,0.0,0.5728,0.3622,HLA-A02:03,,Negative,,,,,1.0,,,162.22222222222223,0.6033333333333332,1.1666666666666667,12.500109306536615,0.42999999999999994,0.4077777777777778,0.058888888888888914,-0.12888888888888894
AMRLWVIRVQK,HLA-A11:01,3.9075,0,5,0.6134,0.5154,,,,,,,,27198675,,ALWVIRVQK,cedar,AMRLWVIRVQK,,Negative,11,,,,,,,0.0,0.9707,0.2613,HLA-A03:01,,Negative,,,,,1.0,,,132.72727272727272,1.5018181818181817,0.2818181818181818,12.51647814642638,0.15818181818181812,0.41363636363636364,0.1781818181818182,-0.13090909090909095
AMVHYLMIL,HLA-A02:01,0.9771,0,5,0.4747,0.8027,,,,,,,,27198675,,AMVHYLMIL,cedar,AMVHYLMIL,,Negative,9,,,,,,,0.0,0.7585,0.623,HLA-A02:11,,Negative,,,,,1.0,,,173.33333333333331,-2.2788888888888885,1.9333333333333336,7.542349207215011,0.788888888888889,0.21111111111111105,-0.1811111111111111,-0.3455555555555556
AMVLAVRGV,HLA-A02:01,1.47,0,3,0.1701,0.8002,,,,,,,,31511069,,AMVLAVRGV,cedar,AMVLAVRGV,,Negative,9,,,,,,,0.0,0.3497,0.4915,HLA-A02:03,,Negative,,,,,1.0,,,162.2222222222222,-1.0033333333333334,1.8888888888888888,10.550002220086753,0.36444444444444446,-0.4233333333333334,0.28111111111111103,-0.31777777777777777
AMYLNYFRGL,HLA-A02:01,6.1562,0,4,1.6241,0.2883,,,,,,,,31511069,,AYLNYFRGL,cedar,AMYLNYFRGL,,Negative,10,,,,,,,0.0,2.4364,0.0296,HLA-A24:02,,Negative,,,,,1.0,,,88.0,0.3919999999999998,0.31,9.171628129668534,0.396,0.13399999999999995,0.04499999999999999,-0.495
AMYQRAKLK,HLA-A03:01,0.0219,0,2,0.0168,0.7969,,,,,,,,34518289,,AMYQRAKLK,cedar,AMYQRAKLK,,Negative,9,,,,,,,0.0,0.0219,0.9431,HLA-A03:01,,Negative,,,,,1.0,,,65.55555555555554,2.312222222222222,-0.8666666666666667,10.901809546165168,-0.16555555555555554,0.23111111111111107,0.3711111111111111,-0.23333333333333334
